!!!!SEGMENT: pl-cz--iii-210--007_engel-jan--litaniae-de-s-joanne-nepomuceno-martyr-dei-inclite.krn
!!!cenid: 17xx:693
!!!COM: Engel, Jan
!!!COM-rismID: pe30009138
!!!CDT: <1772->1788
!!!CNT:
!!!OPR: Litaniae de S. Joanne Nepomuceno
!!!OTL: Martyr Dei inclite
!!!OMV: 007
!!!PDT:
!!!AGN: Sacred; Mass
!!!SMS-siglum: PL-CZ
!!!SMS-shelfmark: III-210
!!!SMS-shelfwork: 001-007 M
!!!NIFC-rismSourceID: 300000285
!!!NIFC-rismChildID: 300000285
!!!NIFC-islandoraID: pl-cz:11875
!!!URL-pdf-islandora: https://repozytorium.nifc.pl/islandora/object/pl-cz%3A11875/datastream/PDF/view
!!!URL-scan: https://polish.musicsources.pl/pl/lokalizacje/galeria/rekopisy/1030 @EN{Scan on Polish Music Sources Website} @PL{Skany w portalu Dziedzictwo Muzyki Polskiej w otwartym dostępie}
!!!ONB-nifc: UWAGA: części Litanii: Kyrie, Pater de caelis, Sancta Maria,
!!!AIN: 1 alto 2 cor 2 empty 2 flt 1 soprn 1 tenor 2 violn
!!!key:
**kern	**fba	**dynam	**kern	**dynam	**kern	**dynam	**kern	**text	**dynam	**kern	**text	**kern	**text	**dynam	**kern	**text	**dynam	**kern	**dynam	**kern	**dynam	**kern	**dynam	**kern	**dynam
*part11	*	*part11	*part10	*part10	*part9	*part9	*part8	*part8	*part8	*part7	*part7	*part6	*part6	*part6	*part5	*part5	*part5	*part4	*part4	*part3	*part3	*part2	*part2	*part1	*part1
*group4	*	*	*group4	*	*group4	*	*group3	*	*	*group3	*	*group3	*	*	*group3	*	*	*group2	*	*group2	*	*group1	*	*group1	*
*staff11	*	*	*staff10	*	*staff9	*	*staff8	*staff8	*	*staff7	*staff7	*staff6	*staff6	*	*staff5	*staff5	*	*staff4	*	*staff3	*	*staff2	*	*staff1	*
*Iempty	*	*	*Ivioln	*	*Ivioln	*	*Iempty	*	*	*Itenor	*	*Ialto	*	*	*Isoprn	*	*	*Icor	*	*Icor	*	*Iflt	*	*Iflt	*
*I"Baſso	*	*	*I"Violino Secundo	*	*I"Violino Primo	*	*I"Baſso	*	*	*I"Tenore	*	*I"Alto	*	*	*I"Soprano	*	*	*I"Corno Secundo in F:	*	*I"Corno Primo in F:	*	*I"Flauto 2do ad libitum	*	*I"Flauto Imo ad libitum	*
*I'B	*	*	*I'Vn II	*	*I'Vn I	*	*I'B	*	*	*I'T	*	*I'A	*	*	*I'S	*	*	*I'Cor II	*	*I'Cor I	*	*I'Fl II	*	*I'Fl I	*
*clefF4	*	*	*clefG2	*	*clefG2	*	*clefF4	*	*	*clefC4	*	*clefC3	*	*	*clefC1	*	*	*clefG2	*	*clefG2	*	*clefG2	*	*clefG2	*
*	*	*	*	*	*	*	*	*	*	*	*	*	*	*	*	*	*	*ITrd4c7	*	*ITrd4c7	*	*	*	*	*
*k[b-]	*	*	*k[b-]	*	*k[b-]	*	*k[b-]	*	*	*k[b-]	*	*k[b-]	*	*	*k[b-]	*	*	*k[b-]	*	*k[b-]	*	*k[b-]	*	*k[b-]	*
*F:	*	*	*F:	*	*F:	*	*F:	*	*	*F:	*	*F:	*	*	*F:	*	*	*	*	*	*	*F:	*	*F:	*
*M3/8	*	*	*M3/8	*	*M3/8	*	*M3/8	*	*	*M3/8	*	*M3/8	*	*	*M3/8	*	*	*M3/8	*	*M3/8	*	*M3/8	*	*M3/8	*
=1	=1	=1	=1	=1	=1	=1	=1	=1	=1	=1	=1	=1	=1	=1	=1	=1	=1	=1	=1	=1	=1	=1	=1	=1	=1
*	*	*	*tremolo	*	*	*below	*	*	*	*	*	*	*	*	*	*	*	*	*	*	*	*	*	*	*
!	!	!	!	!	!	!	!LO:TX:a:t=13	!	!	!LO:TX:a:t=13	!	!	!	!	!	!	!	!LO:TX:a:t=13	!	!LO:TX:a:t=13	!	!	!	!LO:TX:a:t=6	!
!	!	!	!	!	!LO:TX:a:B:t=dolce	!	!LO:N:vis=00	!	!	!LO:N:vis=00	!	!LO:N:vis=00	!	!	!LO:N:vis=00	!	!	!LO:N:vis=00	!	!LO:N:vis=00	!	!LO:N:vis=00	!	!LO:N:vis=00	!
!LO:TX:a:Bi:t=adante	!	!	!LO:TX:a:B:t=Andante	!LO:DY:rj	!LO:TX:a:Bi:t=andante	!	!LO:TX:a:Bi:t=ad dant&colon;	!	!	!LO:TX:b:Bi:t=and&colon;	!	!LO:TX:a:B:t=andante	!	!	!LO:TX:a:i:t=andante	!	!	!LO:TX:a:t=andante in F	!	!LO:TX:a:t=adante in F:	!	!	!	!LO:TX:a:B:t=andante	!
4F\	.	p	16f/LL	p	4a/	p	1.r	.	.	1.r	.	1.r	.	.	1.r	.	.	1.r	.	1.r	.	1.r	.	1.r	.
.	.	.	16f/	.	.	.	.	.	.	.	.	.	.	.	.	.	.	.	.	.	.	.	.	.	.
.	.	.	16f/	.	.	.	.	.	.	.	.	.	.	.	.	.	.	.	.	.	.	.	.	.	.
.	.	.	16f/	.	.	.	.	.	.	.	.	.	.	.	.	.	.	.	.	.	.	.	.	.	.
.	.	.	.	.	8qqcc/	.	.	.	.	.	.	.	.	.	.	.	.	.	.	.	.	.	.	.	.
8G\	6	.	16f/	.	16b-/LL	.	.	.	.	.	.	.	.	.	.	.	.	.	.	.	.	.	.	.	.
.	.	.	16f/JJ	.	32a/L	.	.	.	.	.	.	.	.	.	.	.	.	.	.	.	.	.	.	.	.
.	.	.	.	.	32b-/JJJ	.	.	.	.	.	.	.	.	.	.	.	.	.	.	.	.	.	.	.	.
=2	=2	=2	=2	=2	=2	=2	=2	=2	=2	=2	=2	=2	=2	=2	=2	=2	=2	=2	=2	=2	=2	=2	=2	=2	=2
(8A\L	6\	.	16f/LL	.	(8cc\L	.	.	.	.	.	.	.	.	.	.	.	.	.	.	.	.	.	.	.	.
.	.	.	16f/	.	.	.	.	.	.	.	.	.	.	.	.	.	.	.	.	.	.	.	.	.	.
8B-\	.	.	16f/	.	8dd\	.	.	.	.	.	.	.	.	.	.	.	.	.	.	.	.	.	.	.	.
.	.	.	16f/	.	.	.	.	.	.	.	.	.	.	.	.	.	.	.	.	.	.	.	.	.	.
8c\J)	.	.	16f/	.	8ee\J)	.	.	.	.	.	.	.	.	.	.	.	.	.	.	.	.	.	.	.	.
.	.	.	16f/JJ	.	.	.	.	.	.	.	.	.	.	.	.	.	.	.	.	.	.	.	.	.	.
=3	=3	=3	=3	=3	=3	=3	=3	=3	=3	=3	=3	=3	=3	=3	=3	=3	=3	=3	=3	=3	=3	=3	=3	=3	=3
8d\L	.	.	16f/LL	.	(16.ff\LL	.	.	.	.	.	.	.	.	.	.	.	.	.	.	.	.	.	.	.	.
.	.	.	16f/	.	.	.	.	.	.	.	.	.	.	.	.	.	.	.	.	.	.	.	.	.	.
.	.	.	.	.	32gg\K)	.	.	.	.	.	.	.	.	.	.	.	.	.	.	.	.	.	.	.	.
(8c\	.	.	16f/	.	(16.ee\	.	.	.	.	.	.	.	.	.	.	.	.	.	.	.	.	.	.	.	.
.	.	.	16f/	.	.	.	.	.	.	.	.	.	.	.	.	.	.	.	.	.	.	.	.	.	.
.	.	.	.	.	32ff\K)	.	.	.	.	.	.	.	.	.	.	.	.	.	.	.	.	.	.	.	.
8B-\J)	.	.	16f/	.	(16.dd\	.	.	.	.	.	.	.	.	.	.	.	.	.	.	.	.	.	.	.	.
.	.	.	16f/JJ	.	.	.	.	.	.	.	.	.	.	.	.	.	.	.	.	.	.	.	.	.	.
.	.	.	.	.	32ee\JJk)	.	.	.	.	.	.	.	.	.	.	.	.	.	.	.	.	.	.	.	.
=4	=4	=4	=4	=4	=4	=4	=4	=4	=4	=4	=4	=4	=4	=4	=4	=4	=4	=4	=4	=4	=4	=4	=4	=4	=4
4A\	6	.	16f/LL	.	4cc\	.	.	.	.	.	.	.	.	.	.	.	.	.	.	.	.	.	.	.	.
.	.	.	16f/	.	.	.	.	.	.	.	.	.	.	.	.	.	.	.	.	.	.	.	.	.	.
.	.	.	16f/	.	.	.	.	.	.	.	.	.	.	.	.	.	.	.	.	.	.	.	.	.	.
.	.	.	16f/	.	.	.	.	.	.	.	.	.	.	.	.	.	.	.	.	.	.	.	.	.	.
8F\	.	.	16f/	.	(16a\LL	.	.	.	.	.	.	.	.	.	.	.	.	.	.	.	.	.	.	.	.
.	.	.	16f/JJ	.	16cc\JJ)	.	.	.	.	.	.	.	.	.	.	.	.	.	.	.	.	.	.	.	.
!LO:LB:g=original	!	!	!	!	!	!	!	!	!	!	!	!	!	!	!	!	!	!	!	!	!	!	!	!	!
=5	=5	=5	=5	=5	=5	=5	=5	=5	=5	=5	=5	=5	=5	=5	=5	=5	=5	=5	=5	=5	=5	=5	=5	=5	=5
.	.	.	.	.	8qqcc/	.	.	.	.	.	.	.	.	.	.	.	.	.	.	.	.	.	.	.	.
!	!	!	!	!	!	!	!LO:N:vis=00	!	!	!LO:N:vis=00	!	!LO:N:vis=00	!	!	!LO:N:vis=00	!	!	!LO:N:vis=00	!	!LO:N:vis=00	!	!LO:N:vis=0	!	!LO:N:vis=0	!
4G\	.	.	16f/LL	.	4b-\	.	1.r	.	.	1.r	.	1.r	.	.	1.r	.	.	1.r	.	1.r	.	2.r	.	2.r	.
.	.	.	16f/	.	.	.	.	.	.	.	.	.	.	.	.	.	.	.	.	.	.	.	.	.	.
.	.	.	16f/	.	.	.	.	.	.	.	.	.	.	.	.	.	.	.	.	.	.	.	.	.	.
.	.	.	16f/	.	.	.	.	.	.	.	.	.	.	.	.	.	.	.	.	.	.	.	.	.	.
8C\	.	.	16f/	.	(32cc\LLL	.	.	.	.	.	.	.	.	.	.	.	.	.	.	.	.	.	.	.	.
.	.	.	.	.	32b-\	.	.	.	.	.	.	.	.	.	.	.	.	.	.	.	.	.	.	.	.
.	.	.	16f/JJ	.	32a\	.	.	.	.	.	.	.	.	.	.	.	.	.	.	.	.	.	.	.	.
.	.	.	.	.	32b-\JJJ)	.	.	.	.	.	.	.	.	.	.	.	.	.	.	.	.	.	.	.	.
!	!	!	!	!	!LO:LB:g=original	!	!	!	!	!	!	!	!	!	!	!	!	!	!	!	!	!	!	!	!
=6	=6	=6	=6	=6	=6	=6	=6	=6	=6	=6	=6	=6	=6	=6	=6	=6	=6	=6	=6	=6	=6	=6	=6	=6	=6
4F\	.	.	16f/LL	.	4a\	.	.	.	.	.	.	.	.	.	.	.	.	.	.	.	.	.	.	.	.
.	.	.	16f/	.	.	.	.	.	.	.	.	.	.	.	.	.	.	.	.	.	.	.	.	.	.
.	.	.	16f/	.	.	.	.	.	.	.	.	.	.	.	.	.	.	.	.	.	.	.	.	.	.
.	.	.	16f/	.	.	.	.	.	.	.	.	.	.	.	.	.	.	.	.	.	.	.	.	.	.
8r	.	.	16f/	.	8r	.	.	.	.	.	.	.	.	.	.	.	.	.	.	.	.	.	.	.	.
.	.	.	16f/JJ	.	.	.	.	.	.	.	.	.	.	.	.	.	.	.	.	.	.	.	.	.	.
=7	=7	=7	=7	=7	=7	=7	=7	=7	=7	=7	=7	=7	=7	=7	=7	=7	=7	=7	=7	=7	=7	=7	=7	=7	=7
*	*	*	*	*	*	*	*	*	*	*	*	*	*	*	*	*	*	*	*	*	*	*4\right	*	*	*
!	!	!	!	!	!	!	!	!	!	!	!	!	!	!	!	!	!	!	!	!	!	!LO:TX:b:t=dolce	!	!LO:TX:b:t=dolce	!
4E\	.	.	16c/LL	.	4g/	.	.	.	.	.	.	.	.	.	.	.	.	.	.	.	.	4ee\	.	4gg\	.
.	.	.	16c/	.	.	.	.	.	.	.	.	.	.	.	.	.	.	.	.	.	.	.	.	.	.
.	.	.	16c/	.	.	.	.	.	.	.	.	.	.	.	.	.	.	.	.	.	.	.	.	.	.
.	.	.	16c/	.	.	.	.	.	.	.	.	.	.	.	.	.	.	.	.	.	.	.	.	.	.
*	*	*	*	*	*	*	*	*	*	*	*	*	*	*	*	*	*	*	*	*	*	*16\right	*	*	*
8F\	.	.	16c/	.	(16a/LL	.	.	.	.	.	.	.	.	.	.	.	.	.	.	.	.	(16ff\LL	.	(16aa\LL	.
.	.	.	16c/JJ	.	16cc/JJ)	.	.	.	.	.	.	.	.	.	.	.	.	.	.	.	.	16aa\JJ)	.	16ccc\JJ)	.
=8	=8	=8	=8	=8	=8	=8	=8	=8	=8	=8	=8	=8	=8	=8	=8	=8	=8	=8	=8	=8	=8	=8	=8	=8	=8
!	!	!	!	!	!LO:TX:a:t=P:problem=takt był przerabiany	!	!	!	!	!	!	!	!	!	!	!	!	!	!	!	!	!LO:TX:a:t=P:problem=brak linii dodanej górnej	!	!	!
(8G\L	.	.	16c/LL	.	16cc\LL	.	.	.	.	.	.	.	.	.	.	.	.	.	.	.	.	(16aa\LL	.	(16ccc\LL	.
.	.	.	16c/	.	(16b-\	.	.	.	.	.	.	.	.	.	.	.	.	.	.	.	.	16gg\)	.	16bb-\)	.
8A\)	.	.	16c/	.	16dd\)	.	.	.	.	.	.	.	.	.	.	.	.	.	.	.	.	(16bb-\	.	16ddd\	.
.	.	.	16c/	.	(16cc\	.	.	.	.	.	.	.	.	.	.	.	.	.	.	.	.	16aa\	.	(16ccc\	.
8F\J	.	.	16c/	.	(16b-\)	.	.	.	.	.	.	.	.	.	.	.	.	.	.	.	.	16gg\)	.	16bb-\	.
.	.	.	16c/JJ	.	16a\JJ)	.	.	.	.	.	.	.	.	.	.	.	.	.	.	.	.	16ff\JJ	.	16aa\JJ)	.
=9	=9	=9	=9	=9	=9	=9	=9	=9	=9	=9	=9	=9	=9	=9	=9	=9	=9	=9	=9	=9	=9	=9	=9	=9	=9
!	!	!	!	!	!	!	!LO:N:vis=00	!	!	!LO:N:vis=00	!	!LO:N:vis=00	!	!	!LO:N:vis=00	!	!	!LO:N:vis=00	!	!LO:N:vis=00	!	!	!	!	!
4E\	.	.	16c/LL	.	4g/	.	1.r	.	.	1.r	.	1.r	.	.	1.r	.	.	1.r	.	1.r	.	4ee\	.	4gg\	.
.	.	.	16c/	.	.	.	.	.	.	.	.	.	.	.	.	.	.	.	.	.	.	.	.	.	.
.	.	.	16c/	.	.	.	.	.	.	.	.	.	.	.	.	.	.	.	.	.	.	.	.	.	.
.	.	.	16c/	.	.	.	.	.	.	.	.	.	.	.	.	.	.	.	.	.	.	.	.	.	.
8F\	.	.	16c/	.	(16a/LL	.	.	.	.	.	.	.	.	.	.	.	.	.	.	.	.	(16ff\LL	.	(16aa\LL	.
.	.	.	16c/JJ	.	16cc/JJ)	.	.	.	.	.	.	.	.	.	.	.	.	.	.	.	.	16aa\JJ)	.	16ccc\JJ)	.
=10	=10	=10	=10	=10	=10	=10	=10	=10	=10	=10	=10	=10	=10	=10	=10	=10	=10	=10	=10	=10	=10	=10	=10	=10	=10
(8G\L	.	.	16c/LL	.	(16cc\LL	.	.	.	.	.	.	.	.	.	.	.	.	.	.	.	.	(16aa\LL	.	(16ccc\LL	.
.	.	.	16c/	.	16b-\)	.	.	.	.	.	.	.	.	.	.	.	.	.	.	.	.	16gg\)	.	16bb-\)	.
8A\)	.	.	16c/	.	(16dd\	.	.	.	.	.	.	.	.	.	.	.	.	.	.	.	.	(16bb-\	.	(16ddd\	.
.	.	.	16c/	.	16cc\)	.	.	.	.	.	.	.	.	.	.	.	.	.	.	.	.	16aa\	.	16ccc\)	.
8F\J	.	.	16c/	.	(16b-\	.	.	.	.	.	.	.	.	.	.	.	.	.	.	.	.	16gg\)	.	(16bb-\	.
.	.	.	16c/JJ	.	16a\JJ)	.	.	.	.	.	.	.	.	.	.	.	.	.	.	.	.	16ff\JJ	.	16aa\JJ)	.
=11	=11	=11	=11	=11	=11	=11	=11	=11	=11	=11	=11	=11	=11	=11	=11	=11	=11	=11	=11	=11	=11	=11	=11	=11	=11
4E\	.	.	16c/LL	.	4g/	.	.	.	.	.	.	.	.	.	.	.	.	.	.	.	.	4ee\	.	4gg\	.
.	.	.	16c/	.	.	.	.	.	.	.	.	.	.	.	.	.	.	.	.	.	.	.	.	.	.
.	.	.	16c/	.	.	.	.	.	.	.	.	.	.	.	.	.	.	.	.	.	.	.	.	.	.
.	.	.	16c/	.	.	.	.	.	.	.	.	.	.	.	.	.	.	.	.	.	.	.	.	.	.
8F\	.	.	16c/	.	16cc/LL	.	.	.	.	.	.	.	.	.	.	.	.	.	.	.	.	16aa\LL	.	(16ccc\LL	.
.	.	.	16c/JJ	.	16at/JJ	.	.	.	.	.	.	.	.	.	.	.	.	.	.	.	.	16ff\JJ	.	16aa\JJ)	.
=12	=12	=12	=12	=12	=12	=12	=12	=12	=12	=12	=12	=12	=12	=12	=12	=12	=12	=12	=12	=12	=12	=12	=12	=12	=12
4E\	.	.	16c/LL	.	4g/	.	.	.	.	.	.	.	.	.	.	.	.	.	.	.	.	4ee\	.	4gg\	.
.	.	.	16c/	.	.	.	.	.	.	.	.	.	.	.	.	.	.	.	.	.	.	.	.	.	.
.	.	.	16c/	.	.	.	.	.	.	.	.	.	.	.	.	.	.	.	.	.	.	.	.	.	.
.	.	.	16c/	.	.	.	.	.	.	.	.	.	.	.	.	.	.	.	.	.	.	.	.	.	.
8F\	.	.	16c/	.	16cc/LL	.	.	.	.	.	.	.	.	.	.	.	.	.	.	.	.	16aa\LL	.	(16ccc\LL	.
.	.	.	16c/JJ	.	16at/JJ	.	.	.	.	.	.	.	.	.	.	.	.	.	.	.	.	16ff\JJ	.	16aa\JJ)	.
*	*	*	*Xtremolo	*	*	*	*	*	*	*	*	*	*	*	*	*	*	*	*	*	*	*	*	*	*
!	!	!	!LO:LB:g=original	!	!	!	!	!	!	!	!	!	!	!	!	!	!	!	!	!	!	!LO:LB:g=original	!	!	!
=13	=13	=13	=13	=13	=13	=13	=13	=13	=13	=13	=13	=13	=13	=13	=13	=13	=13	=13	=13	=13	=13	=13	=13	=13	=13
!LO:TX:b:i:t=meza	!	!	!LO:TX:t=P:problem=mixed beam	!	!	!	!	!	!	!	!	!	!	!	!	!	!	!	!	!	!	!	!	!	!
4C\	.	.	8c/L	.	4g/	.	4.r	.	.	4.r	.	4.r	.	.	4.r	.	.	4.r	.	4.r	.	4ee\	.	4gg\	.
*	*	*	*16\right	*	*	*	*	*	*	*	*	*	*	*	*	*	*	*	*	*	*	*	*	*	*
.	.	.	16cc'>\L	.	.	.	.	.	.	.	.	.	.	.	.	.	.	.	.	.	.	.	.	.	.
.	.	.	16b-'>\	.	.	.	.	.	.	.	.	.	.	.	.	.	.	.	.	.	.	.	.	.	.
8r	.	.	16a'>\	.	8r	.	.	.	.	.	.	.	.	.	.	.	.	.	.	.	.	8r	.	8r	.
.	.	.	16g'>\JJ	.	.	.	.	.	.	.	.	.	.	.	.	.	.	.	.	.	.	.	.	.	.
!LO:LB:g=original	!	!	!	!	!	!	!	!	!	!	!	!	!	!	!	!	!	!	!	!	!	!	!	!LO:LB:g=original	!
=14	=14	=14	=14	=14	=14	=14	=14	=14	=14	=14	=14	=14	=14	=14	=14	=14	=14	=14	=14	=14	=14	=14	=14	=14	=14
*	*	*	*tremolo	*	*	*	*	*	*	*	*	*4\right	*	*	*	*	*	*	*	*	*	*	*	*	*
!	!	!	!	!	!	!	!	!	!	!	!	!	!	!	!	!	!	!	!	!	!	!LO:TX:a:t=P:problem=takty 14-26 zapisane repetycją	!	!LO:TX:a:t=P:problem=takty 14-26 zapisane repetycją	!
!	!	!	!	!	!	!	!	!	!	!	!	!	!	!	!	!	!	!	!	!	!	!	!	!LO:TX:a:t=6	!
!	!	!	!	!	!	!	!	!	!	!	!	!	!	!	!	!	!	!	!LO:DY:rj	!	!	!LO:N:vis=00	!	!LO:N:vis=00	!
4F\	.	.	16f/LL	p	4a\	p	4A\	Mar-	.	4A\	Mar-	4a\	Mar-	.	4a\	Mar-	.	4.F/	p	4.f\	p	1.ryy	.	1.ryy	.
.	.	.	16f/	.	.	.	.	.	.	.	.	.	.	.	.	.	.	.	.	.	.	.	.	.	.
.	.	.	16f/	.	.	.	.	.	.	.	.	.	.	.	.	.	.	.	.	.	.	.	.	.	.
.	.	.	16f/	.	.	.	.	.	.	.	.	.	.	.	.	.	.	.	.	.	.	.	.	.	.
.	.	.	.	.	.	.	8qqc/	.	.	16qqc/	.	8qqa/	.	.	8qcc/	.	.	.	.	.	.	.	.	.	.
*	*	*	*	*	*	*	*	*	*	*	*	*8\right	*	*	*	*	*	*	*	*	*	*	*	*	*
!	!	!	!	!	!LO:N:vis=16	!	!LO:N:vis=8	!	!	!	!	!LO:N:vis=8	!	!	!	!	!	!	!	!	!	!	!	!	!
8G\	.	.	16f/	.	32cc\LLL	f	16B-\LL	.	.	16B-\LL	.	16b-\LL	.	.	16b-\LL	.	.	.	.	.	.	.	.	.	.
!	!	!	!	!	!LO:N:vis=16	!	!	!	!	!	!	!	!	!	!	!	!	!	!	!	!	!	!	!	!
.	.	.	.	.	(32b-\	.	.	.	.	.	.	.	.	.	.	.	.	.	.	.	.	.	.	.	.
*	*	*	*	*	*	*	*	*	*	*	*	*32\right	*	*	*	*	*	*	*	*	*	*	*	*	*
!	!	!	!	!	!LO:N:vis=16	!	!	!	!	!	!	!	!	!	!	!	!	!	!	!	!	!	!	!	!
.	.	.	16f/JJ	.	32a\)	.	32A\L	.	.	32A\L	.	32a\L	.	.	32a\L	.	.	.	.	.	.	.	.	.	.
!	!	!	!	!	!LO:N:vis=16	!	!	!	!	!	!	!	!	!	!	!	!	!	!	!	!	!	!	!	!
.	.	.	.	.	32b-\JJJ	.	32B-\JJJ	.	.	32B-\JJJ	.	32b-\JJJ	.	.	32b-\JJJ	.	.	.	.	.	.	.	.	.	.
!	!	!	!	!	!LO:LB:g=original	!	!	!	!	!	!	!	!	!	!	!	!	!	!	!	!	!	!	!	!
=15	=15	=15	=15	=15	=15	=15	=15	=15	=15	=15	=15	=15	=15	=15	=15	=15	=15	=15	=15	=15	=15	=15	=15	=15	=15
(8A\L	.	.	16f/LL	.	(8cc\L	.	8c\L	.	.	(8c\L	.	(8cc\L	.	.	(8cc\L	.	.	4.F/	.	4.f\	.	.	.	.	.
.	.	.	16f/	.	.	.	.	.	.	.	.	.	.	.	.	.	.	.	.	.	.	.	.	.	.
8B-\)	.	.	16f/	.	8dd\)	.	8d\	.	.	8d\)	.	8dd\	.	.	8dd\	.	.	.	.	.	.	.	.	.	.
.	.	.	16f/	.	.	.	.	.	.	.	.	.	.	.	.	.	.	.	.	.	.	.	.	.	.
8c\J	.	.	16f/	.	8ee\J	.	8e\J	.	.	8e\J	-tÿr	8ee\J)	-tyr	.	8ee\J)	.	.	.	.	.	.	.	.	.	.
.	.	.	16f/JJ	.	.	.	.	.	.	.	.	.	.	.	.	.	.	.	.	.	.	.	.	.	.
=16	=16	=16	=16	=16	=16	=16	=16	=16	=16	=16	=16	=16	=16	=16	=16	=16	=16	=16	=16	=16	=16	=16	=16	=16	=16
(8d\L	.	.	16f/LL	.	(16.ff\LL	.	8f\L	.	.	8f\L	.	(8ff\L	.	.	(8ff\L	.	.	4.F/	.	4.f\	.	.	.	.	.
.	.	.	16f/	.	.	.	.	.	.	.	.	.	.	.	.	.	.	.	.	.	.	.	.	.	.
.	.	.	.	.	32gg\K)	.	.	.	.	.	.	.	.	.	.	.	.	.	.	.	.	.	.	.	.
8c\)	.	.	16f/	.	(16.ee\	.	8e\	.	.	8e\	.	8ee\	.	.	8ee\	.	.	.	.	.	.	.	.	.	.
.	.	.	16f/	.	.	.	.	.	.	.	.	.	.	.	.	.	.	.	.	.	.	.	.	.	.
.	.	.	.	.	32ff\K)	.	.	.	.	.	.	.	.	.	.	.	.	.	.	.	.	.	.	.	.
8B-\J	.	.	16f/	.	(16.dd\	.	8d\J	-tÿr	.	8d\J	.	8dd\J)	.	.	8dd\J)	-tÿr	.	.	.	.	.	.	.	.	.
.	.	.	16f/JJ	.	.	.	.	.	.	.	.	.	.	.	.	.	.	.	.	.	.	.	.	.	.
.	.	.	.	.	32ee\JJk)	.	.	.	.	.	.	.	.	.	.	.	.	.	.	.	.	.	.	.	.
!	!	!	!	!	!	!	!LO:LB:g=original	!	!	!LO:LB:g=original	!	!	!	!	!	!	!	!	!	!	!	!	!	!	!
=17	=17	=17	=17	=17	=17	=17	=17	=17	=17	=17	=17	=17	=17	=17	=17	=17	=17	=17	=17	=17	=17	=17	=17	=17	=17
4A\	.	.	16f/LL	.	4cc\	.	4.c\	De-	.	4.c\	De-	4.cc\	De-	.	4.cc\	De-	.	4.F/	.	4.f\	.	.	.	.	.
.	.	.	16f/	.	.	.	.	.	.	.	.	.	.	.	.	.	.	.	.	.	.	.	.	.	.
.	.	.	16f/	.	.	.	.	.	.	.	.	.	.	.	.	.	.	.	.	.	.	.	.	.	.
.	.	.	16f/	.	.	.	.	.	.	.	.	.	.	.	.	.	.	.	.	.	.	.	.	.	.
8F\	.	.	16f/	.	(16a\LL	.	.	.	.	.	.	.	.	.	.	.	.	.	.	.	.	.	.	.	.
.	.	.	16f/JJ	.	16cc\JJ)	.	.	.	.	.	.	.	.	.	.	.	.	.	.	.	.	.	.	.	.
!	!	!	!	!	!	!	!	!	!	!	!	!LO:LB:g=original	!	!	!	!	!	!	!	!	!	!	!	!	!
=18	=18	=18	=18	=18	=18	=18	=18	=18	=18	=18	=18	=18	=18	=18	=18	=18	=18	=18	=18	=18	=18	=18	=18	=18	=18
.	.	.	.	.	8qqcc/	.	.	.	.	.	.	.	.	.	.	.	.	.	.	.	.	.	.	.	.
!	!	!	!	!	!	!	!	!	!	!	!	!	!	!	!	!	!	!	!	!	!	!LO:N:vis=0	!	!LO:N:vis=0	!
4G\	.	.	16f/LL	.	4b-\	.	4.B-\	.	.	4.B-\	-i	4.b-\	.	.	4.b-\	.	.	4.F/	.	4.f\	.	2.ryy	.	2.ryy	.
.	.	.	16f/	.	.	.	.	.	.	.	.	.	.	.	.	.	.	.	.	.	.	.	.	.	.
.	.	.	16f/	.	.	.	.	.	.	.	.	.	.	.	.	.	.	.	.	.	.	.	.	.	.
.	.	.	16f/	.	.	.	.	.	.	.	.	.	.	.	.	.	.	.	.	.	.	.	.	.	.
!	!	!	!	!	!LO:N:vis=16	!	!	!	!	!	!	!	!	!	!	!	!	!	!	!	!	!	!	!	!
8C\	.	.	16f/	.	32cc\LLL	.	.	.	.	.	.	.	.	.	.	.	.	.	.	.	.	.	.	.	.
!	!	!	!	!	!LO:N:vis=16	!	!	!	!	!	!	!	!	!	!	!	!	!	!	!	!	!	!	!	!
.	.	.	.	.	(32b-\	.	.	.	.	.	.	.	.	.	.	.	.	.	.	.	.	.	.	.	.
!	!	!	!	!	!LO:N:vis=16	!	!	!	!	!	!	!	!	!	!	!	!	!	!	!	!	!	!	!	!
.	.	.	16f/JJ	.	32a\)	.	.	.	.	.	.	.	.	.	.	.	.	.	.	.	.	.	.	.	.
!	!	!	!	!	!LO:N:vis=16	!	!	!	!	!	!	!	!	!	!	!	!	!	!	!	!	!	!	!	!
.	.	.	.	.	32b-\JJJ	.	.	.	.	.	.	.	.	.	.	.	.	.	.	.	.	.	.	.	.
=19	=19	=19	=19	=19	=19	=19	=19	=19	=19	=19	=19	=19	=19	=19	=19	=19	=19	=19	=19	=19	=19	=19	=19	=19	=19
4F\	.	.	16f/LL	.	4a\	.	4A\	-i	.	4A\	.	4a\	-i	.	4a\	-i	.	4.F/	.	4.f\	.	.	.	.	.
.	.	.	16f/	.	.	.	.	.	.	.	.	.	.	.	.	.	.	.	.	.	.	.	.	.	.
.	.	.	16f/	.	.	.	.	.	.	.	.	.	.	.	.	.	.	.	.	.	.	.	.	.	.
.	.	.	16f/	.	.	.	.	.	.	.	.	.	.	.	.	.	.	.	.	.	.	.	.	.	.
8r	.	.	16f/	.	8r	.	8r	.	.	8r	.	8r	.	.	8r	.	.	.	.	.	.	.	.	.	.
.	.	.	16f/JJ	.	.	.	.	.	.	.	.	.	.	.	.	.	.	.	.	.	.	.	.	.	.
=20	=20	=20	=20	=20	=20	=20	=20	=20	=20	=20	=20	=20	=20	=20	=20	=20	=20	=20	=20	=20	=20	=20	=20	=20	=20
4E\	.	.	16c/LL	.	4g/	.	4G\	in-	.	4G/	in-	4g\	In-	.	4g\	in-	.	4.C/	.	4.c/	.	4ee\yy	.	4gg\yy	.
.	.	.	16c/	.	.	.	.	.	.	.	.	.	.	.	.	.	.	.	.	.	.	.	.	.	.
.	.	.	16c/	.	.	.	.	.	.	.	.	.	.	.	.	.	.	.	.	.	.	.	.	.	.
.	.	.	16c/	.	.	.	.	.	.	.	.	.	.	.	.	.	.	.	.	.	.	.	.	.	.
8F\	.	.	16c/	.	(16a/LL	.	8A\	-clÿ-	.	8A/	-clÿ-	8a\	-cly-	.	8a\	-cly-	.	.	.	.	.	(16ff\LLyy	.	(16aa\LLyy	.
.	.	.	16c/JJ	.	16cc/JJ)	.	.	.	.	.	.	.	.	.	.	.	.	.	.	.	.	16aa\JJ)yy	.	16ccc\JJ)yy	.
=21	=21	=21	=21	=21	=21	=21	=21	=21	=21	=21	=21	=21	=21	=21	=21	=21	=21	=21	=21	=21	=21	=21	=21	=21	=21
(8G\L	.	.	16c/LL	.	(16cc\LL	.	4G\	-te	.	4G/	-te	4g\	-te	.	4g\	-te	.	4.C/	.	4.c/	.	(16aa\LLyy	.	(16ccc\LLyy	.
.	.	.	16c/	.	16b-\)	.	.	.	.	.	.	.	.	.	.	.	.	.	.	.	.	16gg\)yy	.	16bb-\)yy	.
8A\)	.	.	16c/	.	(16dd\	.	.	.	.	.	.	.	.	.	.	.	.	.	.	.	.	(16bb-\yy	.	16ddd\yy	.
.	.	.	16c/	.	16cc\)	.	.	.	.	.	.	.	.	.	.	.	.	.	.	.	.	16aa\yy	.	(16ccc\)yy	.
8F\J	.	.	16c/	.	(16b-\	.	8r	.	.	8r	.	8r	.	.	8r	.	.	.	.	.	.	16gg\)yy	.	16bb-\yy	.
.	.	.	16c/JJ	.	16a\JJ)	.	.	.	.	.	.	.	.	.	.	.	.	.	.	.	.	16ff\JJyy	.	16aa\JJ)yy	.
=22	=22	=22	=22	=22	=22	=22	=22	=22	=22	=22	=22	=22	=22	=22	=22	=22	=22	=22	=22	=22	=22	=22	=22	=22	=22
4E\	.	.	16c/LL	.	4g/	.	4G\	cu-	.	4G/	cu-	4g\	cu-	.	4g\	cu-	.	4.C/	.	4.c/	.	4ee\yy	.	4gg\yy	.
.	.	.	16c/	.	.	.	.	.	.	.	.	.	.	.	.	.	.	.	.	.	.	.	.	.	.
.	.	.	16c/	.	.	.	.	.	.	.	.	.	.	.	.	.	.	.	.	.	.	.	.	.	.
.	.	.	16c/	.	.	.	.	.	.	.	.	.	.	.	.	.	.	.	.	.	.	.	.	.	.
8F\	.	.	16c/	.	(16a/LL	.	8A\	.	.	8A/	.	8a\	-jus	.	8a\	-jus	.	.	.	.	.	(16ff\LLyy	.	(16aa\LLyy	.
.	.	.	16c/JJ	.	16cc/JJ)	.	.	.	.	.	.	.	.	.	.	.	.	.	.	.	.	16aa\JJ)yy	.	16ccc\JJ)yy	.
!LO:LB:g=original	!	!	!	!	!	!	!	!	!	!	!	!	!	!	!	!	!	!	!	!	!	!	!	!	!
=23	=23	=23	=23	=23	=23	=23	=23	=23	=23	=23	=23	=23	=23	=23	=23	=23	=23	=23	=23	=23	=23	=23	=23	=23	=23
(8G\L	.	.	16c/LL	.	(16cc\LL	.	4G\	-jus	.	4G/	-jus	4g\	.	.	4g\	.	.	4.C/	.	4.c/	.	(16aa\LLyy	.	(16ccc\LLyy	.
.	.	.	16c/	.	16b-\)	.	.	.	.	.	.	.	.	.	.	.	.	.	.	.	.	16gg\)yy	.	16bb-\)yy	.
8A\)	.	.	16c/	.	(16dd\	.	.	.	.	.	.	.	.	.	.	.	.	.	.	.	.	(16bb-\yy	.	(16ddd\yy	.
.	.	.	16c/	.	16cc\)	.	.	.	.	.	.	.	.	.	.	.	.	.	.	.	.	16aa\yy	.	16ccc\)yy	.
8F\J	.	.	16c/	.	(16b-\	.	8r	.	.	8r	.	8r	.	.	8r	.	.	.	.	.	.	16gg\)yy	.	(16bb-\yy	.
!	!	!	!	!	!	!	!LO:TX:b:Bi:t=Volto	!	!	!	!	!	!	!	!	!	!	!	!	!	!	!	!	!	!
.	.	.	16c/JJ	.	16a\JJ)	.	.	.	.	.	.	.	.	.	.	.	.	.	.	.	.	16ff\JJyy	.	16aa\JJ)yy	.
!	!	!	!	!	!LO:PB:g=original	!	!LO:PB:g=original	!	!	!LO:LB:g=original	!	!	!	!	!LO:LB:g=original	!	!	!LO:LB:g=original	!	!	!	!	!	!	!
=24	=24	=24	=24	=24	=24	=24	=24	=24	=24	=24	=24	=24	=24	=24	=24	=24	=24	=24	=24	=24	=24	=24	=24	=24	=24
4E\	.	.	16c/LL	.	4g/	.	4G\	Se-	.	4G/	Se-	4g\	Se-	.	4g\	Se-	.	4.C/	.	4.c/	.	4ee\yy	.	4gg\yy	.
.	.	.	16c/	.	.	.	.	.	.	.	.	.	.	.	.	.	.	.	.	.	.	.	.	.	.
.	.	.	16c/	.	.	.	.	.	.	.	.	.	.	.	.	.	.	.	.	.	.	.	.	.	.
.	.	.	16c/	.	.	.	.	.	.	.	.	.	.	.	.	.	.	.	.	.	.	.	.	.	.
*	*	*	*	*	*	*	*	*	*	*	*	*16\right	*	*	*	*	*	*	*	*	*	*	*	*	*
8F\	.	.	16c/	.	(16ccT\LL	.	16c\LL	.	.	(16c/LL	.	(16cc\LL	.	.	(16cc\LL	-pul-	.	.	.	.	.	16aa\LLyy	.	(16ccc\LLyy	.
.	.	.	16c/JJ	.	16a\JJ)	.	16A\JJ	.	.	16A/JJ)	.	16a\JJ)	.	.	16a\JJ)	.	.	.	.	.	.	16ff\JJyy	.	16aa\JJ)yy	.
!	!	!	!	!	!	!	!	!	!	!	!	!	!	!	!	!	!	!	!	!LO:LB:g=original	!	!	!	!	!
=25	=25	=25	=25	=25	=25	=25	=25	=25	=25	=25	=25	=25	=25	=25	=25	=25	=25	=25	=25	=25	=25	=25	=25	=25	=25
4E\	.	.	16c/LL	.	4g/	.	4G\	-pul-	.	4G/	-pul-	4g\	-pul-	.	4g\	-chrum	.	8C/	.	8c/	.	4ee\yy	.	4gg\yy	.
.	.	.	16c/	.	.	.	.	.	.	.	.	.	.	.	.	.	.	.	.	.	.	.	.	.	.
.	.	.	16c/	.	.	.	.	.	.	.	.	.	.	.	.	.	.	8r	.	8r	.	.	.	.	.
.	.	.	16c/	.	.	.	.	.	.	.	.	.	.	.	.	.	.	.	.	.	.	.	.	.	.
8F\	.	.	16c/	.	(16ccT\LL	.	16c\LL	-ch-	.	(16c/LL	-chrum	(16cc\LL	-chrum	.	(16cc\LL	.	.	8r	.	8r	.	16aa\LLyy	.	(16ccc\LLyy	.
.	.	.	16c/JJ	.	16a\JJ)	.	16A\JJ	.	.	16A/JJ)	.	16a\JJ)	.	.	16a\JJ)	.	.	.	.	.	.	16ff\JJyy	.	16aa\JJ)yy	.
*	*	*	*Xtremolo	*	*	*	*	*	*	*	*	*	*	*	*	*	*	*	*	*	*	*	*	*	*
!	!	!	!LO:LB:g=original	!	!	!	!	!	!	!	!	!	!	!	!	!	!	!	!	!	!	!LO:LB:g=original	!	!	!
=26	=26	=26	=26	=26	=26	=26	=26	=26	=26	=26	=26	=26	=26	=26	=26	=26	=26	=26	=26	=26	=26	=26	=26	=26	=26
!	!	!	!	!	!	!	!	!	!	!	!	!	!	!	!	!	!	!LO:N:vis=00	!	!LO:N:vis=00	!	!	!	!	!
4C\	.	.	8c/	.	4g/	.	4G\	-rum	.	4G/	.	4g\	.	.	4g\	.	.	1.r	.	1.r	.	4ee\yy	.	4gg\yy	.
.	.	.	16cc'\LL	.	.	.	.	.	.	.	.	.	.	.	.	.	.	.	.	.	.	.	.	.	.
.	.	.	16b-'\	.	.	.	.	.	.	.	.	.	.	.	.	.	.	.	.	.	.	.	.	.	.
8r	.	.	16a'\	.	8r	.	8r	.	.	8r	.	8r	.	.	8r	.	.	.	.	.	.	8ryy	.	8ryy	.
.	.	.	16g'\JJ	.	.	.	.	.	.	.	.	.	.	.	.	.	.	.	.	.	.	.	.	.	.
!	!	!	!	!	!	!	!	!	!	!	!	!LO:LB:g=original	!	!	!	!	!	!	!	!	!	!	!	!LO:LB:g=original	!
=27	=27	=27	=27	=27	=27	=27	=27	=27	=27	=27	=27	=27	=27	=27	=27	=27	=27	=27	=27	=27	=27	=27	=27	=27	=27
*	*	*	*tremolo	*	*	*	*	*	*	*	*	*	*	*	*	*	*	*	*	*	*	*	*	*	*
!	!	!	!	!	!	!	!	!	!	!	!	!	!	!	!	!	!	!	!	!	!	!LO:N:vis=00	!	!LO:N:vis=00	!
8F\L	.	.	16f/LL	.	4a\	.	4A\	mir-	.	4A\	mir-	4A/	mir-	.	4a\	Mi-	.	.	.	.	.	1.r	.	1.r	.
.	.	.	16f/	.	.	.	.	.	.	.	.	.	.	.	.	.	.	.	.	.	.	.	.	.	.
8A\	.	.	16f/	.	.	.	.	.	.	.	.	.	.	.	.	.	.	.	.	.	.	.	.	.	.
.	.	.	16f/	.	.	.	.	.	.	.	.	.	.	.	.	.	.	.	.	.	.	.	.	.	.
8G\J	.	.	16f/	.	(16bn\LL	.	16Bn\LL	.	.	(16Bn\LL	.	16Bn/LL	.	.	16bn\LL	.	.	.	.	.	.	.	.	.	.
.	.	.	16f/JJ	.	16cc#X\JJ)	.	16c#X\JJ	.	.	16c#X\JJ)	.	16c#X/JJ	.	.	16cc#X\JJ	.	.	.	.	.	.	.	.	.	.
=28	=28	=28	=28	=28	=28	=28	=28	=28	=28	=28	=28	=28	=28	=28	=28	=28	=28	=28	=28	=28	=28	=28	=28	=28	=28
!LO:TX:t=P:problem=mixed beam	!	!	!	!	!	!	!	!	!	!	!	!	!	!	!	!	!	!	!	!	!	!	!	!	!
8F\L	.	.	16f/LL	.	4dd\	.	4d\	-a-	.	4d\	.	4d\	-a-	.	4dd\	-a-	.	.	.	.	.	.	.	.	.
.	.	.	16f/	.	.	.	.	.	.	.	.	.	.	.	.	.	.	.	.	.	.	.	.	.	.
8FF/	.	.	16f/	.	.	.	.	.	.	.	.	.	.	.	.	.	.	.	.	.	.	.	.	.	.
.	.	.	16f/	.	.	.	.	.	.	.	.	.	.	.	.	.	.	.	.	.	.	.	.	.	.
.	.	.	.	.	8qff/	.	.	.	.	.	.	.	.	.	.	.	.	.	.	.	.	.	.	.	.
8G\J	.	.	16f/	.	16ee\LL	.	8e\	.	.	8e\	.	8e\	.	.	8ee\	.	.	.	.	.	.	.	.	.	.
.	.	.	16f/JJ	.	32dd\L	.	.	.	.	.	.	.	.	.	.	.	.	.	.	.	.	.	.	.	.
.	.	.	.	.	32ee\JJJ	.	.	.	.	.	.	.	.	.	.	.	.	.	.	.	.	.	.	.	.
=29	=29	=29	=29	=29	=29	=29	=29	=29	=29	=29	=29	=29	=29	=29	=29	=29	=29	=29	=29	=29	=29	=29	=29	=29	=29
4A\	.	.	16f/LL	.	8ff\L	.	4f\	.	.	8f\L	.	8f\L	.	.	8ff\L	.	.	.	.	.	.	.	.	.	.
.	.	.	16f/	.	.	.	.	.	.	.	.	.	.	.	.	.	.	.	.	.	.	.	.	.	.
.	.	.	16f/	.	16aa\L	.	.	.	.	16a\L	.	16a\L	.	.	16aa\L	.	.	.	.	.	.	.	.	.	.
.	.	.	16f/	.	(16gg\	.	.	.	.	16g\	.	16g\	.	.	16gg\	.	.	.	.	.	.	.	.	.	.
16Bn\LL	.	.	16f/	.	16ff\)	.	8e\	.	.	16f\	.	16f\	.	.	16ff\	.	.	.	.	.	.	.	.	.	.
16c#X\JJ	.	.	16f/JJ	.	16ee\JJ	.	.	.	.	16e\JJ	.	16e\JJ	.	.	16ee\JJ	.	.	.	.	.	.	.	.	.	.
!	!	!	!	!	!	!	!	!	!	!LO:LB:g=original	!	!	!	!	!	!	!	!	!	!	!	!	!	!	!
=30	=30	=30	=30	=30	=30	=30	=30	=30	=30	=30	=30	=30	=30	=30	=30	=30	=30	=30	=30	=30	=30	=30	=30	=30	=30
!	!	!	!	!	!	!	!	!	!	!	!	!	!	!	!	!	!	!LO:N:vis=00	!	!LO:N:vis=00	!	!	!	!	!
4d\	.	.	16f/LL	.	(16ee\LL	.	4.d\	.	.	4.d\	.	4.d\	.	.	4.dd\	.	.	1.r	.	1.r	.	.	.	.	.
.	.	.	16f/	.	16dd\)	.	.	.	.	.	.	.	.	.	.	.	.	.	.	.	.	.	.	.	.
.	.	.	16f/	.	(16cc#X\	.	.	.	.	.	.	.	.	.	.	.	.	.	.	.	.	.	.	.	.
.	.	.	16f/	.	16dd\)	.	.	.	.	.	.	.	.	.	.	.	.	.	.	.	.	.	.	.	.
8r	.	.	16f/	.	(16cc#\	.	.	.	.	.	.	.	.	.	.	.	.	.	.	.	.	.	.	.	.
.	.	.	16f/JJ	.	16dd\JJ)	.	.	.	.	.	.	.	.	.	.	.	.	.	.	.	.	.	.	.	.
!LO:LB:g=original	!	!	!	!	!	!	!LO:LB:g=original	!	!	!	!	!	!	!	!	!	!	!	!	!	!	!	!	!	!
=31	=31	=31	=31	=31	=31	=31	=31	=31	=31	=31	=31	=31	=31	=31	=31	=31	=31	=31	=31	=31	=31	=31	=31	=31	=31
!	!	!	!	!	!	!	!	!	!	!	!	!	!	!	!	!	!	!	!	!	!	!LO:N:vis=00	!	!LO:N:vis=00	!
8A\L	6 3	.	16f/LL	.	(16dd\LL	.	8.cn\	.	.	8.cn\	-a-	8.cn\	.	.	8.ccn\L	.	.	.	.	.	.	1.r	.	1.r	.
.	.	.	16f/	.	16ccn\)	.	.	.	.	.	.	.	.	.	.	.	.	.	.	.	.	.	.	.	.
8F#X\	.	.	16f/	.	(16bn\	.	.	.	.	.	.	.	.	.	.	.	.	.	.	.	.	.	.	.	.
.	.	.	16f/	.	16cc\)	.	16c\	-cu-	.	16c\	-cu-	16c\	-cu-	.	16cc\Jk	-cu-	.	.	.	.	.	.	.	.	.
8D\J	.	.	16f/	.	(16b\	.	8c\	-liſ	.	8c\	-liſ	8c\	-liſ	.	8cc\	-lis	.	.	.	.	.	.	.	.	.
.	.	.	16f/JJ	.	16cc\JJ)	.	.	.	.	.	.	.	.	.	.	.	.	.	.	.	.	.	.	.	.
!	!	!	!	!	!LO:LB:g=original	!	!	!	!	!	!	!	!	!	!LO:LB:g=original	!	!	!	!	!	!	!	!	!	!
=32	=32	=32	=32	=32	=32	=32	=32	=32	=32	=32	=32	=32	=32	=32	=32	=32	=32	=32	=32	=32	=32	=32	=32	=32	=32
4G\	n4r	.	16f#X/LL	.	8ccT\L	.	8c\	Cla-	.	8c\	Cla-	8c\	cla-	.	8cc\	cla-	.	.	.	.	.	.	.	.	.
.	.	.	16f#/	.	.	.	.	.	.	.	.	.	.	.	.	.	.	.	.	.	.	.	.	.	.
.	.	.	16f#/	.	8bn\J	.	8Bn\	-rum	.	8Bn\	-rum	8Bn\	-rum	.	8bn\	-rum	.	.	.	.	.	.	.	.	.
.	.	.	16f#/	.	.	.	.	.	.	.	.	.	.	.	.	.	.	.	.	.	.	.	.	.	.
8r	.	.	16f#/	.	8g/	.	8r	.	.	8r	.	8r	.	.	8r	.	.	.	.	.	.	.	.	.	.
.	.	.	16f#/JJ	.	.	.	.	.	.	.	.	.	.	.	.	.	.	.	.	.	.	.	.	.	.
=33	=33	=33	=33	=33	=33	=33	=33	=33	=33	=33	=33	=33	=33	=33	=33	=33	=33	=33	=33	=33	=33	=33	=33	=33	=33
4G\	3	.	16g/LL	.	16.g\LL	.	8G\L	Bo-	.	8G/L	Bo-	8g\	Bo-	.	8g\L	Bo-	.	.	.	.	.	.	.	.	.
.	4	.	16g/	.	.	.	.	.	.	.	.	.	.	.	.	.	.	.	.	.	.	.	.	.	.
.	.	.	.	.	32bn\K	.	.	.	.	.	.	.	.	.	.	.	.	.	.	.	.	.	.	.	.
.	.	.	16g/	.	16.a\	.	8A\	.	.	8A/	.	8a\	.	.	8a\	.	.	.	.	.	.	.	.	.	.
.	.	.	16g/	.	.	.	.	.	.	.	.	.	.	.	.	.	.	.	.	.	.	.	.	.	.
.	.	.	.	.	32cc\K	.	.	.	.	.	.	.	.	.	.	.	.	.	.	.	.	.	.	.	.
!	!	!	!	!	!	!	!LO:SIC:l:s=-he-:v	!	!	!	!	!LO:SIC:l:s=-hem-:v	!	!	!	!	!	!	!	!	!	!	!	!	!
8F\	6 4	.	16g/	.	16.b\	.	8Bn\J	-hae-	.	8Bn/J	-hem-	8bn\	-haem-	.	8bn\J	-hem-	.	.	.	.	.	.	.	.	.
.	.	.	16g/JJ	.	.	.	.	.	.	.	.	.	.	.	.	.	.	.	.	.	.	.	.	.	.
.	.	.	.	.	32dd\JJk	.	.	.	.	.	.	.	.	.	.	.	.	.	.	.	.	.	.	.	.
=34	=34	=34	=34	=34	=34	=34	=34	=34	=34	=34	=34	=34	=34	=34	=34	=34	=34	=34	=34	=34	=34	=34	=34	=34	=34
!	!	!	!	!	!	!	!	!	!	!	!	!	!	!	!	!	!	!LO:TX:a:t=P:problem=brak taktu 34	!	!LO:TX:a:t=P:problem=brak taktu 34	!	!	!	!	!
8E\L	6	.	16gLL 16G/	.	16.cc\LL	.	8c\L	-mo-	.	8c\L	-or-	(8cc\	-o-	.	8cc\L	-or-	.	4.ryy	.	4.ryy	.	.	.	.	.
.	.	.	16g 16G/	.	.	.	.	.	.	.	.	.	.	.	.	.	.	.	.	.	.	.	.	.	.
.	.	.	.	.	32ee\K	.	.	.	.	.	.	.	.	.	.	.	.	.	.	.	.	.	.	.	.
8D\	6\	.	16g 16G/	.	16.dd\	.	8d\	.	.	8d\	.	8g\)	-rum	.	8dd\	.	.	.	.	.	.	.	.	.	.
.	.	.	16g 16G/	.	.	.	.	.	.	.	.	.	.	.	.	.	.	.	.	.	.	.	.	.	.
.	.	.	.	.	32ff\K	.	.	.	.	.	.	.	.	.	.	.	.	.	.	.	.	.	.	.	.
8C\J	.	.	16g 16G/	.	16.ee\	.	8e\J	-rum	.	8e\J	-um	8e\	.	.	8ee\J	-um	.	.	.	.	.	.	.	.	.
.	.	.	16gJJ 16G/	.	.	.	.	.	.	.	.	.	.	.	.	.	.	.	.	.	.	.	.	.	.
.	.	.	.	.	32gg\JJk	.	.	.	.	.	.	.	.	.	.	.	.	.	.	.	.	.	.	.	.
!	!	!	!	!	!	!	!	!	!	!	!	!LO:LB:g=original	!	!	!	!	!	!	!	!	!	!	!	!	!
=35	=35	=35	=35	=35	=35	=35	=35	=35	=35	=35	=35	=35	=35	=35	=35	=35	=35	=35	=35	=35	=35	=35	=35	=35	=35
*	*	*	*	*	*	*	*	*	*	*	*	*	*	*	*	*	*	*	*	*	*	*4\left	*	*	*
!	!	!	!	!	!	!	!	!	!	!	!	!	!	!	!	!	!	!	!	!	!LO:DY:t=f	!	!	!	!
8BBn/L	6 5	.	16gLL 16G/	.	4gg\	.	8f\L	Thau-	.	4f\	Thau-	4f\	Thau-	.	4ff\	Thau-	.	4.g\	.	4.g\	f	4.dd\	.	4.ff\	.
.	.	.	16g 16G/	.	.	.	.	.	.	.	.	.	.	.	.	.	.	.	.	.	.	.	.	.	.
8GG/	.	.	16g 16G/	.	.	.	8d\J	.	.	.	.	.	.	.	.	.	.	.	.	.	.	.	.	.	.
.	.	.	16g 16G/	.	.	.	.	.	.	.	.	.	.	.	.	.	.	.	.	.	.	.	.	.	.
8BB/J	.	.	16g 16G/	.	32gg\LLL	.	8Bn\	-ma-	.	8f\	-ma-	8f\	-ma-	.	8ff\	-ma-	.	.	.	.	.	.	.	.	.
.	.	.	.	.	(32ff\	.	.	.	.	.	.	.	.	.	.	.	.	.	.	.	.	.	.	.	.
.	.	.	16gJJ 16G/	.	32ee\)	.	.	.	.	.	.	.	.	.	.	.	.	.	.	.	.	.	.	.	.
.	.	.	.	.	32ff\JJJ	.	.	.	.	.	.	.	.	.	.	.	.	.	.	.	.	.	.	.	.
!	!	!	!	!	!	!	!	!	!	!LO:LB:g=original	!	!	!	!	!	!	!	!	!	!	!	!	!	!	!
=36	=36	=36	=36	=36	=36	=36	=36	=36	=36	=36	=36	=36	=36	=36	=36	=36	=36	=36	=36	=36	=36	=36	=36	=36	=36
8C/L	4 2	.	16gLL 16G/	.	(8ff\L	.	8c\	-thur-	.	8f\	-thur-	8f\	-thur-	.	8ff\	-thur-	.	8g\	.	8g\	.	(8dd\L	.	(8ff\L	.
.	.	.	16g 16G/	.	.	.	.	.	.	.	.	.	.	.	.	.	.	.	.	.	.	.	.	.	.
8CC/J	5 1	.	16g 16G/	.	8ee\J)	.	8C/	-ge	.	8e\	-ge	8e\	-ge	.	8ee\	-ge	.	8r	.	8r	.	8cc\J)	.	8ee\J)	.
.	.	.	16g 16G/	.	.	.	.	.	.	.	.	.	.	.	.	.	.	.	.	.	.	.	.	.	.
8r	.	.	16g 16G/	.	8g/	.	8r	.	.	8r	.	8r	.	.	8r	.	.	8r	.	8r	.	8r	.	8r	.
.	.	.	16gJJ 16G/	.	.	.	.	.	.	.	.	.	.	.	.	.	.	.	.	.	.	.	.	.	.
!	!	!	!	!	!	!	!LO:LB:g=original	!	!	!	!	!	!	!	!	!	!	!	!	!	!	!	!	!	!
=37	=37	=37	=37	=37	=37	=37	=37	=37	=37	=37	=37	=37	=37	=37	=37	=37	=37	=37	=37	=37	=37	=37	=37	=37	=37
!	!	!	!	!	!	!	!	!	!	!	!	!	!	!	!	!	!	!LO:N:vis=0	!	!LO:N:vis=0	!	!LO:N:vis=0	!	!LO:N:vis=0	!
4G\	n3	.	16gLL 16G/	.	16.g\LL	.	(8G\L	Bo-	.	8G\L	Bo-	8g\	Bo-	.	8g\L	Bo-	.	2.r	.	2.r	.	2.r	.	2.r	.
.	.	.	16g 16G/	.	.	.	.	.	.	.	.	.	.	.	.	.	.	.	.	.	.	.	.	.	.
.	4	.	.	.	32bn\K	.	.	.	.	.	.	.	.	.	.	.	.	.	.	.	.	.	.	.	.
.	.	.	16g 16G/	.	16.a\	.	8A\J)	.	.	8A\	-he-	8a\	-hem-	.	8a\	-hem-	.	.	.	.	.	.	.	.	.
.	.	.	16g 16G/	.	.	.	.	.	.	.	.	.	.	.	.	.	.	.	.	.	.	.	.	.	.
.	.	.	.	.	32cc\K	.	.	.	.	.	.	.	.	.	.	.	.	.	.	.	.	.	.	.	.
8F\	6 +4r	.	16g 16G/	.	16.b\	.	8Bn\	-hem-	.	8Bn\J	-em-	8bn\	.	.	8bn\J	-or-	.	.	.	.	.	.	.	.	.
.	.	.	16gJJ 16G/	.	.	.	.	.	.	.	.	.	.	.	.	.	.	.	.	.	.	.	.	.	.
.	.	.	.	.	32dd\JJk	.	.	.	.	.	.	.	.	.	.	.	.	.	.	.	.	.	.	.	.
=38	=38	=38	=38	=38	=38	=38	=38	=38	=38	=38	=38	=38	=38	=38	=38	=38	=38	=38	=38	=38	=38	=38	=38	=38	=38
8E\L	6\	.	16gLL 16G/	.	16.cc\LL	.	8c\L	-or-	.	8c\L	-o-	8cc\	-o-	.	8cc\L	.	.	.	.	.	.	.	.	.	.
.	.	.	16g 16G/	.	.	.	.	.	.	.	.	.	.	.	.	.	.	.	.	.	.	.	.	.	.
.	.	.	.	.	32ee\K	.	.	.	.	.	.	.	.	.	.	.	.	.	.	.	.	.	.	.	.
8D\	6\	.	16g 16G/	.	16.dd\	.	8d\J	.	.	8d\	.	8g\	-rum	.	8dd\	-um	.	.	.	.	.	.	.	.	.
.	.	.	16g 16G/	.	.	.	.	.	.	.	.	.	.	.	.	.	.	.	.	.	.	.	.	.	.
.	.	.	.	.	32ff\K	.	.	.	.	.	.	.	.	.	.	.	.	.	.	.	.	.	.	.	.
8C\J	.	.	16g 16G/	.	16.ee\	.	8e\	-um	.	8e\J	-rum	8e\	.	.	8ee\J	.	.	.	.	.	.	.	.	.	.
.	.	.	16gJJ 16G/	.	.	.	.	.	.	.	.	.	.	.	.	.	.	.	.	.	.	.	.	.	.
*	*	*	*Xtremolo	*	*	*	*	*	*	*	*	*	*	*	*	*	*	*	*	*	*	*	*	*	*
.	.	.	.	.	32gg\JJk	.	.	.	.	.	.	.	.	.	.	.	.	.	.	.	.	.	.	.	.
!	!	!	!LO:LB:g=original	!	!LO:LB:g=original	!	!	!	!	!	!	!	!	!	!	!	!	!	!	!	!	!	!	!	!
=39	=39	=39	=39	=39	=39	=39	=39	=39	=39	=39	=39	=39	=39	=39	=39	=39	=39	=39	=39	=39	=39	=39	=39	=39	=39
8BBn/L	6 5	.	4.g 4.G/	.	4gg\	.	8f\L	Thau-	.	4f\	Thau-	4f\	Thau-	.	4ff\	Thau-	.	4.g\	.	4.g\	.	4.dd\	.	4.ff\	.
8GG/	.	.	.	.	.	.	8d\J	.	.	.	.	.	.	.	.	.	.	.	.	.	.	.	.	.	.
8BB/J	.	.	.	.	32gg\LLL	.	8Bn\	-ma-	.	8f\	-ma-	8f\	-ma-	.	8ff\	-ma-	.	.	.	.	.	.	.	.	.
.	.	.	.	.	(32ff\	.	.	.	.	.	.	.	.	.	.	.	.	.	.	.	.	.	.	.	.
.	.	.	.	.	32ee\)	.	.	.	.	.	.	.	.	.	.	.	.	.	.	.	.	.	.	.	.
.	.	.	.	.	32ff\JJJ	.	.	.	.	.	.	.	.	.	.	.	.	.	.	.	.	.	.	.	.
!LO:LB:g=original	!	!	!	!	!	!	!	!	!	!	!	!	!	!	!LO:LB:g=original	!	!	!	!	!	!	!	!	!	!
=40	=40	=40	=40	=40	=40	=40	=40	=40	=40	=40	=40	=40	=40	=40	=40	=40	=40	=40	=40	=40	=40	=40	=40	=40	=40
*	*	*	*tremolo	*	*	*	*	*	*	*	*	*	*	*	*	*	*	*	*	*	*	*	*	*	*
8C/L	4 2	.	16gLL 16G/	.	8ff\L	.	8c\	-thur-	.	8f\	-thur-	8f\	-thur-	.	8ff\	-thur-	.	4c/	.	4g\	.	(8dd\L	.	(8ff\L	.
.	.	.	16g 16G/	.	.	.	.	.	.	.	.	.	.	.	.	.	.	.	.	.	.	.	.	.	.
8CC/J	5 3	.	16g 16G/	.	8ee\J	.	8C/	-ge	.	8e\	-ge	8e\	-ge	.	8ee\	-ge	.	.	.	.	.	8cc\J)	.	8ee\J)	.
.	.	.	16gJJ 16G/	.	.	.	.	.	.	.	.	.	.	.	.	.	.	.	.	.	.	.	.	.	.
*	*	*	*Xtremolo	*	*	*	*	*	*	*	*	*	*	*	*	*	*	*	*	*	*	*	*	*	*
8D\	.	.	16f/LL	.	8g/	.	8r	.	.	8r	.	8r	.	.	8r	.	.	8r	.	8r	.	8r	.	8r	.
.	.	.	16f/JJ	.	.	.	.	.	.	.	.	.	.	.	.	.	.	.	.	.	.	.	.	.	.
!	!	!	!	!	!	!	!	!	!	!LO:LB:g=original	!	!	!	!	!	!	!	!	!	!	!	!	!	!	!
=41	=41	=41	=41	=41	=41	=41	=41	=41	=41	=41	=41	=41	=41	=41	=41	=41	=41	=41	=41	=41	=41	=41	=41	=41	=41
!	!	!	!	!	!	!	!	!	!	!	!	!	!	!	!	!	!	!LO:N:vis=00	!	!LO:N:vis=00	!	!LO:N:vis=00	!	!LO:N:vis=00	!
4E\	6	.	4e 4G/	.	16cc\LL	.	4.r	.	.	16c\LL	Pa-	16c/LL	Pa-	.	16cc\LL	Pa-	.	1.r	.	1.r	.	1.r	.	1.r	.
.	.	.	.	.	(16bn\	.	.	.	.	(16Bn\	.	(16B-/	.	.	(16bn\	.	.	.	.	.	.	.	.	.	.
.	.	.	.	.	16cc\	.	.	.	.	16c\	.	16c/	.	.	16cc\	.	.	.	.	.	.	.	.	.	.
.	.	.	.	.	16dd\)	.	.	.	.	16d\)	.	16d/	.	.	16dd\)	.	.	.	.	.	.	.	.	.	.
8r	.	.	8r	.	16ee\	.	.	.	.	16e\	.	16e/)	.	.	16ee\	.	.	.	.	.	.	.	.	.	.
.	.	.	.	.	16cc\JJ	.	.	.	.	16c\JJ	.	16c/JJ	.	.	16cc\JJ	.	.	.	.	.	.	.	.	.	.
=42	=42	=42	=42	=42	=42	=42	=42	=42	=42	=42	=42	=42	=42	=42	=42	=42	=42	=42	=42	=42	=42	=42	=42	=42	=42
16F\LL	.	.	4f/	.	16a\LL	.	16F\LL	or-	.	16A\LL	.	16A/LL	.	.	16a\LL	.	.	.	.	.	.	.	.	.	.
(16E\	.	.	.	.	(16g\	.	(16E\	.	.	(16G\	.	16G/	.	.	16g\	.	.	.	.	.	.	.	.	.	.
16F\	.	.	.	.	16a\	.	16F\	.	.	16A\	.	16A/	.	.	16a\	.	.	.	.	.	.	.	.	.	.
16G\	.	.	.	.	16bn\)	.	16G\)	.	.	16B-\)	.	16B-/	.	.	16bn\	.	.	.	.	.	.	.	.	.	.
16A\)	.	.	(8e/	.	16cc\	.	16A\	.	.	16c\	.	16c/	.	.	16cc\	.	.	.	.	.	.	.	.	.	.
16G\JJ	.	.	.	.	16cc#X\JJ	.	16G\JJ	.	.	16c#X\JJ	.	16c#X/JJ	.	.	16cc#X\JJ	.	.	.	.	.	.	.	.	.	.
!	!	!	!	!	!	!	!	!	!	!	!	!LO:LB:g=original	!	!	!	!	!	!	!	!	!	!	!	!	!
=43	=43	=43	=43	=43	=43	=43	=43	=43	=43	=43	=43	=43	=43	=43	=43	=43	=43	=43	=43	=43	=43	=43	=43	=43	=43
4F\	6	.	4d/)	.	16dd\LL	.	4F\	-ra	.	16d\LL	.	(16d\LL	.	.	16dd\LL	.	.	.	.	.	.	.	.	.	.
.	.	.	.	.	(16cc\	.	.	.	.	(16c#X\	.	16c#X\	.	.	16cc\	.	.	.	.	.	.	.	.	.	.
.	.	.	.	.	16dd\	.	.	.	.	16d\)	.	16d\	.	.	16dd\	.	.	.	.	.	.	.	.	.	.
.	.	.	.	.	16ee\	.	.	.	.	16e\	.	16e\	.	.	16ee\	.	.	.	.	.	.	.	.	.	.
8r	.	.	8r	.	16ff\)	.	8r	.	.	16f\	.	16f\)	.	.	16ff\	.	.	.	.	.	.	.	.	.	.
.	.	.	.	.	16dd\JJ	.	.	.	.	16d\JJ	.	16d\JJ	.	.	16dd\JJ	.	.	.	.	.	.	.	.	.	.
!	!	!	!	!	!	!	!LO:LB:g=original	!	!	!	!	!	!	!	!	!	!	!	!	!	!	!	!	!	!
=44	=44	=44	=44	=44	=44	=44	=44	=44	=44	=44	=44	=44	=44	=44	=44	=44	=44	=44	=44	=44	=44	=44	=44	=44	=44
.	.	.	.	.	.	.	.	.	.	8qqc/	.	8qqc/	.	.	8qqcc/	.	.	.	.	.	.	.	.	.	.
16G\LL	n	.	4g/	.	8cc\L	.	16G\LL	o-	.	4Bn\	.	4Bn\	.	.	4bn\	.	.	.	.	.	.	.	.	.	.
(16A\	.	.	.	.	.	.	16A\	.	.	.	.	.	.	.	.	.	.	.	.	.	.	.	.	.	.
16G\	.	.	.	.	8bn\J	.	16G\	.	.	.	.	.	.	.	.	.	.	.	.	.	.	.	.	.	.
16F\)	.	.	.	.	.	.	(16F\	.	.	.	.	.	.	.	.	.	.	.	.	.	.	.	.	.	.
16E\	.	.	(8f/	.	(16cc\LL	.	16E\)	.	.	16c\LL	.	16c\LL	.	.	16cc\LL	.	.	.	.	.	.	.	.	.	.
16D\JJ	.	.	.	.	16dd\JJ)	.	16D\JJ	.	.	16d\JJ	.	16d\JJ	.	.	16dd\JJ	.	.	.	.	.	.	.	.	.	.
=45	=45	=45	=45	=45	=45	=45	=45	=45	=45	=45	=45	=45	=45	=45	=45	=45	=45	=45	=45	=45	=45	=45	=45	=45	=45
!	!	!	!	!	!	!	!	!	!	!	!	!	!	!	!	!	!	!LO:N:vis=00	!	!LO:N:vis=00	!	!	!	!	!
4E\	6	.	4e/)	.	16ee\LL	.	4C\	-ra	.	16e\LL	.	16e\LL	.	.	16ee\LL	.	.	1.r	.	1.r	.	4.r	.	4.r	.
.	.	.	.	.	(16dd\	.	.	.	.	16d\	.	(16d\	.	.	16dd\	.	.	.	.	.	.	.	.	.	.
.	.	.	.	.	16ee\	.	.	.	.	(16e\	.	16e\	.	.	16ee\	.	.	.	.	.	.	.	.	.	.
.	.	.	.	.	16ff\	.	.	.	.	16f\)	.	16f\)	.	.	16ff\	.	.	.	.	.	.	.	.	.	.
8r	.	.	8r	.	16gg\)	.	8r	.	.	16g\	.	16g\	.	.	16gg\	.	.	.	.	.	.	.	.	.	.
.	.	.	.	.	16b-X\JJ	.	.	.	.	16B-X\JJ	.	16B-X\JJ	.	.	16b-X\JJ	.	.	.	.	.	.	.	.	.	.
!	!	!	!	!	!LO:LB:g=original	!	!	!	!	!LO:LB:g=original	!	!	!	!	!LO:LB:g=original	!	!	!	!	!	!	!	!	!	!
=46	=46	=46	=46	=46	=46	=46	=46	=46	=46	=46	=46	=46	=46	=46	=46	=46	=46	=46	=46	=46	=46	=46	=46	=46	=46
*	*	*	*8\right	*	*	*	*	*	*	*	*	*	*	*	*	*	*	*	*	*	*	*	*	*	*
!	!	!	!LO:N:vis=8	!LO:DY:rj	!	!	!	!	!	!	!	!	!	!	!	!	!	!	!	!	!	!	!	!	!
4.F\	.	.	(16f\LL	f	16a\LL	.	4F\	pro	.	4A\	.	8A/	.	.	4a\	.	.	.	.	.	.	8r	.	8r	.
*	*	*	*32\right	*	*	*	*	*	*	*	*	*	*	*	*	*	*	*	*	*	*	*	*	*	*
.	.	.	32g\L	.	(32b-\L	.	.	.	.	.	.	.	.	.	.	.	.	.	.	.	.	.	.	.	.
.	.	.	32a\JJJ)	.	32cc\	.	.	.	.	.	.	.	.	.	.	.	.	.	.	.	.	.	.	.	.
.	.	.	(32bn\LLL	.	32dd\	.	.	.	.	.	.	4a\	.	.	.	.	.	.	.	.	.	8r	.	8r	.
!	!	!	!	!	!	!LO:DY:t=for&colon;	!	!	!	!	!	!	!	!	!	!	!	!	!	!	!	!	!	!	!
.	.	.	32cc\	.	32ee\	f	.	.	.	.	.	.	.	.	.	.	.	.	.	.	.	.	.	.	.
.	.	.	32dd\	.	32ff\)	.	.	.	.	.	.	.	.	.	.	.	.	.	.	.	.	.	.	.	.
.	.	.	32ee\JJJ	.	32gg\JJJ	.	.	.	.	.	.	.	.	.	.	.	.	.	.	.	.	.	.	.	.
.	.	.	16ff'\LL)	.	16aa\LL	p	8A\	no-	.	8a\	.	.	.	.	8aa\	.	.	.	.	.	.	8ff\	.	8aa\	.
.	.	.	16ff'\JJ	.	16aa\JJ	.	.	.	.	.	.	.	.	.	.	.	.	.	.	.	.	.	.	.	.
=47	=47	=47	=47	=47	=47	=47	=47	=47	=47	=47	=47	=47	=47	=47	=47	=47	=47	=47	=47	=47	=47	=47	=47	=47	=47
8F\L	.	.	8ff\L	p	8aa\L	.	8A\L	.	.	8a\L	-tro-	8a\L	-tro-	.	8aa\L	-tro-	.	.	.	.	.	(8ff\L	.	(8aa\L	.
8F\	.	.	8ee\	.	(8gg\	.	8G\	.	.	8g\	-ne	8g\	.	.	8gg\	.	.	.	.	.	.	8ee\	.	8gg\)	.
8F\J	.	.	8dd\J	.	8ff\J)	.	8F\J	.	.	8f\J	.	8f\J	-ne	.	8ff\J	-ne	.	.	.	.	.	8dd\J)	.	8ff\J	.
!LO:LB:g=original	!	!	!	!	!	!	!	!	!	!	!	!	!	!	!	!	!	!	!	!	!	!	!	!	!
=48	=48	=48	=48	=48	=48	=48	=48	=48	=48	=48	=48	=48	=48	=48	=48	=48	=48	=48	=48	=48	=48	=48	=48	=48	=48
*	*	*	*4\right	*	*	*	*	*	*	*	*	*	*	*	*	*	*	*	*	*	*	*	*	*	*
8G\L	6_ 4_	.	4.cc\	.	(16.ee\LL	.	4E\	.	.	4e\	Sin-	4.e\	Sin-	.	4ee\	Sin-	.	.	.	.	.	4.cc\	.	4.ee\	.
.	.	.	.	.	32ff\K)	.	.	.	.	.	.	.	.	.	.	.	.	.	.	.	.	.	.	.	.
8A\	.	.	.	.	(16.ee\	.	.	.	.	.	.	.	.	.	.	.	.	.	.	.	.	.	.	.	.
.	X X	.	.	.	32ff\K)	.	.	.	.	.	.	.	.	.	.	.	.	.	.	.	.	.	.	.	.
8F#X\J	.	.	.	.	(16.ee\	.	8E\	-bis	.	8e\	-gu-	.	.	.	8ee\	-gu-	.	.	.	.	.	.	.	.	.
.	.	.	.	.	32ff\JJk)	.	.	.	.	.	.	.	.	.	.	.	.	.	.	.	.	.	.	.	.
=49	=49	=49	=49	=49	=49	=49	=49	=49	=49	=49	=49	=49	=49	=49	=49	=49	=49	=49	=49	=49	=49	=49	=49	=49	=49
*tremolo	*	*	*	*	*	*	*	*	*	*	*	*	*	*	*	*	*	*	*	*	*	*	*	*	*
8G\L	6 n4r	.	16.cc\LL	.	8ee\L	.	8E\L	pro	.	8e\L	-lar-	8e\L	-gu-	.	8ee\L	-lar-	.	4.g\	.	4.g\	.	8cc\L	.	8ee\L	.
.	.	.	32dd\K	.	.	.	.	.	.	.	.	.	.	.	.	.	.	.	.	.	.	.	.	.	.
*	*	*	*	*	*	*	*	*	*	*	*	*	*	*	*	*	*	*	*	*	*	*16\left	*	*	*
8G\	.	.	16.cc\	.	(16gg\L	.	16G\L	.	.	16g\L	.	(16g\L	-la-	.	16gg\L	.	.	.	.	.	.	16ee\L	.	16gg\L	.
.	.	.	.	.	16ff\)	.	16F\	.	.	(16f\	.	16f\	.	.	16ff\	.	.	.	.	.	.	(16dd\	.	16ff\	.
.	.	.	32dd\K	.	.	.	.	.	.	.	.	.	.	.	.	.	.	.	.	.	.	.	.	.	.
8G\J	.	.	16.cc\	.	(16ee\	.	16E\	.	.	16e\)	.	16e\	.	.	16ee\	.	.	.	.	.	.	16cc\	.	16ee\	.
.	.	.	.	.	16dd\JJ)	.	16D\JJ	.	.	16d\JJ	.	16d\JJ)	.	.	16dd\JJ	.	.	.	.	.	.	16bn\JJ)	.	16dd\JJ	.
.	.	.	32dd\JJk	.	.	.	.	.	.	.	.	.	.	.	.	.	.	.	.	.	.	.	.	.	.
!	!	!	!LO:LB:g=original	!	!	!	!	!	!	!	!	!	!	!	!	!	!	!	!	!	!	!LO:LB:g=original	!	!	!
=50	=50	=50	=50	=50	=50	=50	=50	=50	=50	=50	=50	=50	=50	=50	=50	=50	=50	=50	=50	=50	=50	=50	=50	=50	=50
!	!	!	!	!	!	!	!	!	!	!	!	!	!	!	!	!	!	!	!	!	!	!LO:TX:a:t=P:problem=brak taktu 50	!	!LO:TX:a:t=P:problem=brak taktu 50	!
8GG/L	n	.	8cc\L	.	4.ddT\	.	4.DT\	no-	.	4.d\	.	4.d\	.	.	4.ddT\	.	.	4.g\	.	4.g\	.	4.ryy	.	4.ryy	.
8GG/	.	.	(16ee\L	.	.	.	.	.	.	.	.	.	.	.	.	.	.	.	.	.	.	.	.	.	.
.	.	.	16dd\	.	.	.	.	.	.	.	.	.	.	.	.	.	.	.	.	.	.	.	.	.	.
8GG/J	.	.	16cc\	.	.	.	.	.	.	.	.	.	.	.	.	.	.	.	.	.	.	.	.	.	.
.	.	.	16bn\JJ)	.	.	.	.	.	.	.	.	.	.	.	.	.	.	.	.	.	.	.	.	.	.
*Xtremolo	*	*	*	*	*	*	*	*	*	*	*	*	*	*	*	*	*	*	*	*	*	*	*	*	*
=51	=51	=51	=51	=51	=51	=51	=51	=51	=51	=51	=51	=51	=51	=51	=51	=51	=51	=51	=51	=51	=51	=51	=51	=51	=51
4C/	.	.	16cc\LL	.	4cc\	.	4C\	-biſ	.	4c\	-is	4c\	-ris	.	4cc\	-is	.	4c/	.	4g\	.	4cc\	.	4cc\	.
.	.	.	16g\	.	.	.	.	.	.	.	.	.	.	.	.	.	.	.	.	.	.	.	.	.	.
.	.	.	16g\	.	.	.	.	.	.	.	.	.	.	.	.	.	.	.	.	.	.	.	.	.	.
.	.	.	16g\	.	.	.	.	.	.	.	.	.	.	.	.	.	.	.	.	.	.	.	.	.	.
8r	.	.	16g\	.	(16ee\LL	p	8r	.	.	8r	.	8r	.	.	8r	.	.	8r	.	8r	.	8r	.	8r	.
.	.	.	16g\JJ	.	16gg\JJ)	.	.	.	.	.	.	.	.	.	.	.	.	.	.	.	.	.	.	.	.
!	!	!	!	!	!	!	!LO:LB:g=original	!	!	!	!	!LO:LB:g=original	!	!	!	!	!	!	!	!	!	!	!	!LO:LB:g=original	!
=52	=52	=52	=52	=52	=52	=52	=52	=52	=52	=52	=52	=52	=52	=52	=52	=52	=52	=52	=52	=52	=52	=52	=52	=52	=52
4G\	7 n	p	(16f/LL	.	(16gg\LL	.	4.Bn\	o-	.	4.d\	o-	4.g\	o-	.	4.ff\	o-	.	4.g\	p	4.g\	.	4.dd\	p	4.ff\	.
.	.	.	16g/)	.	16ff\)	.	.	.	.	.	.	.	.	.	.	.	.	.	.	.	.	.	.	.	.
.	.	.	(16f/	.	(16ee\	.	.	.	.	.	.	.	.	.	.	.	.	.	.	.	.	.	.	.	.
.	.	.	16g/)	.	16dd\)	.	.	.	.	.	.	.	.	.	.	.	.	.	.	.	.	.	.	.	.
8GG/	.	.	(16f/	.	(16cc\	.	.	.	.	.	.	.	.	.	.	.	.	.	.	.	.	.	.	.	.
.	.	.	16g/JJ)	.	16bn\JJ)	.	.	.	.	.	.	.	.	.	.	.	.	.	.	.	.	.	.	.	.
!	!	!	!	!	!	!	!	!	!	!LO:LB:g=original	!	!	!	!	!	!	!	!	!	!	!	!	!	!	!
=53	=53	=53	=53	=53	=53	=53	=53	=53	=53	=53	=53	=53	=53	=53	=53	=53	=53	=53	=53	=53	=53	=53	=53	=53	=53
4C/	.	.	(16e/LL	.	4cc\	.	8c\	-ra	.	8c\	-ra	8g\	-ra-	.	8ee\	-ra	.	4c/	.	4g\	.	8cc\	.	8ee\	.
.	.	.	16g/)	.	.	.	.	.	.	.	.	.	.	.	.	.	.	.	.	.	.	.	.	.	.
.	.	.	(16e/	.	.	.	8r	.	.	8r	.	8r	.	.	8r	.	.	.	.	.	.	8r	.	8r	.
.	.	.	16g/)	.	.	.	.	.	.	.	.	.	.	.	.	.	.	.	.	.	.	.	.	.	.
8r	.	.	(16e/	.	(16ee\LL	.	8r	.	.	8r	.	8r	.	.	8r	.	.	8r	.	8r	.	8r	.	8r	.
.	.	.	16g/JJ)	.	16gg\JJ)	.	.	.	.	.	.	.	.	.	.	.	.	.	.	.	.	.	.	.	.
!	!	!	!	!	!LO:LB:g=original	!	!	!	!	!	!	!	!	!	!	!	!	!	!	!	!	!	!	!	!
=54	=54	=54	=54	=54	=54	=54	=54	=54	=54	=54	=54	=54	=54	=54	=54	=54	=54	=54	=54	=54	=54	=54	=54	=54	=54
!	!	!	!	!	!	!	!	!	!	!LO:SIC:l:s=pro:v	!	!	!	!	!	!	!	!	!	!	!	!	!	!	!
4G\	n	.	(16f/LL	.	(16gg\LL	.	8Bn\	pro-	.	8d\	po	8g\	-pro	.	8ff\	pro	.	4.g\	.	4.g\	.	4.dd\	.	4.ff\	.
.	.	.	16g/)	.	16ff\)	.	.	.	.	.	.	.	.	.	.	.	.	.	.	.	.	.	.	.	.
.	.	.	(16f/	.	(16ee\	.	4B\	-no-	.	4d\	no-	4g\	no-	.	4ff\	no-	.	.	.	.	.	.	.	.	.
.	.	.	16g/)	.	16dd\)	.	.	.	.	.	.	.	.	.	.	.	.	.	.	.	.	.	.	.	.
8GG/	.	.	(16f/	.	(16cc\	.	.	.	.	.	.	.	.	.	.	.	.	.	.	.	.	.	.	.	.
.	.	.	16g/JJ)	.	16bn\JJ)	.	.	.	.	.	.	.	.	.	.	.	.	.	.	.	.	.	.	.	.
!	!	!	!	!	!	!	!	!	!	!	!	!	!	!	!LO:LB:g=original	!	!	!	!	!LO:LB:g=original	!	!	!	!	!
=55	=55	=55	=55	=55	=55	=55	=55	=55	=55	=55	=55	=55	=55	=55	=55	=55	=55	=55	=55	=55	=55	=55	=55	=55	=55
4C\	.	.	(16e/LL	.	4cc\	f	4c\	-bis	.	8c\	-biſ	4g\	-bis	.	8ee\	-bis	.	4c/	.	4g\	.	8cc\	.	8ee\	.
.	.	.	16g/)	.	.	.	.	.	.	.	.	.	.	.	.	.	.	.	.	.	.	.	.	.	.
.	.	.	(16e/	.	.	.	.	.	.	8r	.	.	.	.	8r	.	.	.	.	.	.	8r	.	8r	.
.	.	.	16g/)	.	.	.	.	.	.	.	.	.	.	.	.	.	.	.	.	.	.	.	.	.	.
!	!	!LO:DY:t=fo	!	!	!	!	!	!	!	!	!	!	!	!	!	!	!	!	!	!	!	!	!	!	!
(16E\LL	.	f	(16e/	.	(16ee\LL	.	8r	.	.	8r	.	8r	.	.	8r	.	.	8r	.	8r	.	8r	.	8r	.
16G\JJ)	.	.	16g/JJ)	.	16gg\JJ)	.	.	.	.	.	.	.	.	.	.	.	.	.	.	.	.	.	.	.	.
!	!	!	!	!	!	!	!	!	!	!	!	!	!	!	!	!	!	!LO:LB:g=original	!	!	!	!	!	!	!
=56	=56	=56	=56	=56	=56	=56	=56	=56	=56	=56	=56	=56	=56	=56	=56	=56	=56	=56	=56	=56	=56	=56	=56	=56	=56
!	!	!	!	!	!	!	!LO:TX:a:t=5	!	!	!LO:TX:a:t=5	!	!	!	!	!	!	!	!LO:TX:a:t=11	!	!LO:TX:a:t=11	!	!LO:TX:a:t=11	!	!LO:TX:a:t=11	!
!	!	!	!	!LO:DY:t=fo.	!	!	!LO:N:vis=00	!	!	!LO:N:vis=00	!	!LO:N:vis=00	!	!	!LO:N:vis=00	!	!	!LO:N:vis=00	!	!LO:N:vis=00	!	!LO:N:vis=00	!	!LO:N:vis=00	!
16G\LL	.	.	(16g/LL	f	16gg\LL	.	1.r	.	.	1.r	.	1.r	.	.	1.r	.	.	1.r	.	1.r	.	1.r	.	1.r	.
(16F\	.	.	16f/	.	(16ff\	.	.	.	.	.	.	.	.	.	.	.	.	.	.	.	.	.	.	.	.
16E\	.	.	16e/	.	16ee\	.	.	.	.	.	.	.	.	.	.	.	.	.	.	.	.	.	.	.	.
16F\	.	.	16f/)	.	16ff\)	.	.	.	.	.	.	.	.	.	.	.	.	.	.	.	.	.	.	.	.
16G\)	.	.	16g/	.	16gg\	.	.	.	.	.	.	.	.	.	.	.	.	.	.	.	.	.	.	.	.
16A\JJ	.	.	16a/JJ	.	16aa\JJ	.	.	.	.	.	.	.	.	.	.	.	.	.	.	.	.	.	.	.	.
!LO:LB:g=original	!	!	!	!	!	!	!	!	!	!	!	!	!	!	!	!	!	!	!	!	!	!	!	!	!
=57	=57	=57	=57	=57	=57	=57	=57	=57	=57	=57	=57	=57	=57	=57	=57	=57	=57	=57	=57	=57	=57	=57	=57	=57	=57
16B-X\LL	.	.	(16b-X/LL	.	(16bb-X\LL	.	.	.	.	.	.	.	.	.	.	.	.	.	.	.	.	.	.	.	.
16A\	.	.	16a/	.	16aa\)	.	.	.	.	.	.	.	.	.	.	.	.	.	.	.	.	.	.	.	.
(16G\	.	.	16g/	.	(16gg\	.	.	.	.	.	.	.	.	.	.	.	.	.	.	.	.	.	.	.	.
16F\	.	.	16f/	.	16ff\)	.	.	.	.	.	.	.	.	.	.	.	.	.	.	.	.	.	.	.	.
16E\)	.	.	16e/	.	(16ee\	.	.	.	.	.	.	.	.	.	.	.	.	.	.	.	.	.	.	.	.
16D\JJ	.	.	16d/JJ)	.	16dd\JJ)	.	.	.	.	.	.	.	.	.	.	.	.	.	.	.	.	.	.	.	.
!	!	!	!LO:PB:g=original	!	!	!	!	!	!	!	!	!	!	!	!	!	!	!	!	!	!	!	!	!	!
=58	=58	=58	=58	=58	=58	=58	=58	=58	=58	=58	=58	=58	=58	=58	=58	=58	=58	=58	=58	=58	=58	=58	=58	=58	=58
16C#X/LL	.	.	(16c#X/LL	.	16cc#X\LL	.	.	.	.	.	.	.	.	.	.	.	.	.	.	.	.	.	.	.	.
(16BBn/	.	.	16Bn/	.	(16bn\	.	.	.	.	.	.	.	.	.	.	.	.	.	.	.	.	.	.	.	.
16C#/	.	.	16c#/	.	16cc#\	.	.	.	.	.	.	.	.	.	.	.	.	.	.	.	.	.	.	.	.
16D/)	.	.	16d/	.	16dd\)	.	.	.	.	.	.	.	.	.	.	.	.	.	.	.	.	.	.	.	.
16E/	.	.	16e/)	.	16ee\	.	.	.	.	.	.	.	.	.	.	.	.	.	.	.	.	.	.	.	.
16F/JJ	.	.	16f/JJ	.	16ff\JJ	.	.	.	.	.	.	.	.	.	.	.	.	.	.	.	.	.	.	.	.
=59	=59	=59	=59	=59	=59	=59	=59	=59	=59	=59	=59	=59	=59	=59	=59	=59	=59	=59	=59	=59	=59	=59	=59	=59	=59
(16G\LL	.	.	(16g/LL	.	(16gg\LL	.	.	.	.	.	.	.	.	.	.	.	.	.	.	.	.	.	.	.	.
16F#X\)	.	.	16f#X/)	.	16ff#X\)	.	.	.	.	.	.	.	.	.	.	.	.	.	.	.	.	.	.	.	.
(16G\	.	.	(16g/	.	(16gg\	.	.	.	.	.	.	.	.	.	.	.	.	.	.	.	.	.	.	.	.
16F#\)	.	.	16f#/)	.	16ff#\)	.	.	.	.	.	.	.	.	.	.	.	.	.	.	.	.	.	.	.	.
(16G\	.	.	(16g/	.	(16gg\	.	.	.	.	.	.	.	.	.	.	.	.	.	.	.	.	.	.	.	.
16A\JJ)	.	.	16a/JJ)	.	16aa\JJ)	.	.	.	.	.	.	.	.	.	.	.	.	.	.	.	.	.	.	.	.
=60	=60	=60	=60	=60	=60	=60	=60	=60	=60	=60	=60	=60	=60	=60	=60	=60	=60	=60	=60	=60	=60	=60	=60	=60	=60
!	!	!	!	!	!	!	!	!	!	!	!	!	!	!	!	!	!	!LO:N:vis=00	!	!LO:N:vis=00	!	!LO:N:vis=00	!	!LO:N:vis=00	!
4B-X\	.	p	4b-X\	.	4bb-\	.	4.r	.	.	4.r	.	4.r	.	.	4.r	.	.	1.r	.	1.r	.	1.r	.	1.r	.
!	!	!	!	!	!	!	!	!	!	!LO:TX:b:Bi:t=Volto	!	!	!	!	!	!	!	!	!	!	!	!	!	!	!
8r	.	.	8r	.	8r	.	.	.	.	.	.	.	.	.	.	.	.	.	.	.	.	.	.	.	.
!	!	!	!	!	!	!	!	!	!	!LO:PB:g=original	!	!	!	!	!	!	!	!	!	!	!	!	!	!	!
=61	=61	=61	=61	=61	=61	=61	=61	=61	=61	=61	=61	=61	=61	=61	=61	=61	=61	=61	=61	=61	=61	=61	=61	=61	=61
*	*	*	*tremolo	*	*	*	*	*	*	*	*	*	*	*	*	*	*	*	*	*	*	*	*	*	*
!	!	!	!	!LO:DY:t=Po:	!	!	!	!	!	!	!	!	!	!	!	!	!	!	!	!	!	!	!	!	!
4F\	.	.	16f/LL	p	4a\	p	4AA/	Mar-	.	4A\	Mar-	4A/	Ma-	.	4a\	Mar-	.	.	.	.	.	.	.	.	.
.	.	.	16f/	.	.	.	.	.	.	.	.	.	.	.	.	.	.	.	.	.	.	.	.	.	.
.	.	.	16f/	.	.	.	.	.	.	.	.	.	.	.	.	.	.	.	.	.	.	.	.	.	.
.	.	.	16f/	.	.	.	.	.	.	.	.	.	.	.	.	.	.	.	.	.	.	.	.	.	.
.	.	.	.	.	8qqcc/	f	16qqC/	.	.	8qqc/	.	.	.	.	8qqcc/	.	.	.	.	.	.	.	.	.	.
!	!	!	!	!	!	!	!	!	!	!	!	!LO:N:vis=8	!	!	!	!	!	!	!	!	!	!	!	!	!
8G\	.	.	16f/	.	16b-T\LL	.	16BB-/LL	.	.	16B-\LL	.	16B-/LL	.	.	16b-\LL	.	.	.	.	.	.	.	.	.	.
!	!	!	!	!	!	!	!	!	!	!	!	!LO:N:vis=16	!	!	!	!	!	!	!	!	!	!	!	!	!
.	.	.	16f/JJ	.	32a\L	.	32AA/L	.	.	32A\L	.	32A/L	.	.	32a\L	.	.	.	.	.	.	.	.	.	.
!	!	!	!	!	!	!	!	!	!	!	!	!LO:N:vis=16	!	!	!	!	!	!	!	!	!	!	!	!	!
.	.	.	.	.	32b-\JJJ	.	32BB-/JJJ	.	.	32B-\JJJ	.	32B-/JJJ	.	.	32b-\JJJ	.	.	.	.	.	.	.	.	.	.
!	!	!	!	!	!LO:LB:g=original	!	!	!	!	!	!	!	!	!	!	!	!	!	!	!	!	!	!	!	!
=62	=62	=62	=62	=62	=62	=62	=62	=62	=62	=62	=62	=62	=62	=62	=62	=62	=62	=62	=62	=62	=62	=62	=62	=62	=62
(8A\L	.	.	16f/LL	.	8cc\L	.	8C/L	.	.	8c\L	.	8c\L	.	.	(8cc\L	.	.	.	.	.	.	.	.	.	.
.	.	.	16f/	.	.	.	.	.	.	.	.	.	.	.	.	.	.	.	.	.	.	.	.	.	.
8B-\	.	.	16f/	.	(8dd\	.	(8D/	.	.	8d\	.	8d\	.	.	8dd\)	.	.	.	.	.	.	.	.	.	.
.	.	.	16f/	.	.	.	.	.	.	.	.	.	.	.	.	.	.	.	.	.	.	.	.	.	.
8c\J)	.	.	16f/	.	8ee\J)	.	8E/J)	.	.	8e\J	.	8e\J	.	.	8ee\J	.	.	.	.	.	.	.	.	.	.
.	.	.	16f/JJ	.	.	.	.	.	.	.	.	.	.	.	.	.	.	.	.	.	.	.	.	.	.
!	!	!	!	!	!	!	!LO:LB:g=original	!	!	!	!	!	!	!	!	!	!	!	!	!	!	!	!	!	!
=63	=63	=63	=63	=63	=63	=63	=63	=63	=63	=63	=63	=63	=63	=63	=63	=63	=63	=63	=63	=63	=63	=63	=63	=63	=63
!	!	!	!	!	!	!	!	!	!	!LO:SIC:l:s=-tÿr:v	!	!	!	!	!	!	!	!	!	!	!	!	!	!	!
8d\L	.	.	16f/LL	.	(8ff\L	.	(8F\L	-tyr	.	8f\L	-tiÿ	8f\L	-tyr	.	(8ff\L	.	.	.	.	.	.	.	.	.	.
.	.	.	16f/	.	.	.	.	.	.	.	.	.	.	.	.	.	.	.	.	.	.	.	.	.	.
(8c\	.	.	16f/	.	8ee\)	.	8E\	.	.	8e\	.	8e\	.	.	8ee\)	.	.	.	.	.	.	.	.	.	.
.	.	.	16f/	.	.	.	.	.	.	.	.	.	.	.	.	.	.	.	.	.	.	.	.	.	.
8B-\J)	.	.	16f/	.	8dd\J	.	8D\J)	.	.	8d\J	.	8d\J	.	.	8dd\J	-tÿr	.	.	.	.	.	.	.	.	.
.	.	.	16f/JJ	.	.	.	.	.	.	.	.	.	.	.	.	.	.	.	.	.	.	.	.	.	.
!LO:LB:g=original	!	!	!	!	!	!	!	!	!	!	!	!	!	!	!	!	!	!	!	!	!	!	!	!	!
=64	=64	=64	=64	=64	=64	=64	=64	=64	=64	=64	=64	=64	=64	=64	=64	=64	=64	=64	=64	=64	=64	=64	=64	=64	=64
.	.	.	.	.	.	.	.	.	.	.	.	8qqc/	.	.	.	.	.	.	.	.	.	.	.	.	.
!	!	!	!	!	!	!	!	!	!	!	!	!	!	!	!	!	!	!LO:N:vis=0	!	!LO:N:vis=0	!	!LO:N:vis=0	!	!LO:N:vis=0	!
(4A\	.	.	16f/LL	.	4cc\	.	4C\	de-	.	4.c\	De-	4.cc\	De-	.	4.cc\	De-	.	2.r	.	2.r	.	2.r	.	2.r	.
.	.	.	16f/	.	.	.	.	.	.	.	.	.	.	.	.	.	.	.	.	.	.	.	.	.	.
.	.	.	16f/	.	.	.	.	.	.	.	.	.	.	.	.	.	.	.	.	.	.	.	.	.	.
.	.	.	16f/	.	.	.	.	.	.	.	.	.	.	.	.	.	.	.	.	.	.	.	.	.	.
8F\)	.	.	16f/	.	(16a\LL	.	8c\	.	.	.	.	.	.	.	.	.	.	.	.	.	.	.	.	.	.
.	.	.	16f/JJ	.	16cc\JJ)	.	.	.	.	.	.	.	.	.	.	.	.	.	.	.	.	.	.	.	.
=65	=65	=65	=65	=65	=65	=65	=65	=65	=65	=65	=65	=65	=65	=65	=65	=65	=65	=65	=65	=65	=65	=65	=65	=65	=65
.	.	.	.	.	8qqcc/	.	.	.	.	.	.	.	.	.	.	.	.	.	.	.	.	.	.	.	.
4G\	.	.	16f/LL	.	4b-\	.	4.B-\	-i	.	4.B-\	.	4.b-\	.	.	4.b-\	.	.	.	.	.	.	.	.	.	.
.	.	.	16f/	.	.	.	.	.	.	.	.	.	.	.	.	.	.	.	.	.	.	.	.	.	.
.	.	.	16f/	.	.	.	.	.	.	.	.	.	.	.	.	.	.	.	.	.	.	.	.	.	.
.	.	.	16f/	.	.	.	.	.	.	.	.	.	.	.	.	.	.	.	.	.	.	.	.	.	.
8C\	.	.	16f/	.	32cc\LLL	.	.	.	.	.	.	.	.	.	.	.	.	.	.	.	.	.	.	.	.
.	.	.	.	.	(32b-\	.	.	.	.	.	.	.	.	.	.	.	.	.	.	.	.	.	.	.	.
.	.	.	16f/JJ	.	32a\	.	.	.	.	.	.	.	.	.	.	.	.	.	.	.	.	.	.	.	.
.	.	.	.	.	32b-\JJJ)	.	.	.	.	.	.	.	.	.	.	.	.	.	.	.	.	.	.	.	.
=66	=66	=66	=66	=66	=66	=66	=66	=66	=66	=66	=66	=66	=66	=66	=66	=66	=66	=66	=66	=66	=66	=66	=66	=66	=66
4F\	.	.	16f/LL	.	4a\	.	4A\	o-	.	4A\	-i.	4a\	-i	.	4a\	-i	.	4.r	.	4.r	.	4.r	.	4.r	.
.	.	.	16f/	.	.	.	.	.	.	.	.	.	.	.	.	.	.	.	.	.	.	.	.	.	.
.	.	.	16f/	.	.	.	.	.	.	.	.	.	.	.	.	.	.	.	.	.	.	.	.	.	.
.	.	.	16f/	.	.	.	.	.	.	.	.	.	.	.	.	.	.	.	.	.	.	.	.	.	.
8r	.	.	16f/	.	8r	.	8r	.	.	8r	.	8r	.	.	8r	.	.	.	.	.	.	.	.	.	.
.	.	.	16f/JJ	.	.	.	.	.	.	.	.	.	.	.	.	.	.	.	.	.	.	.	.	.	.
!	!	!	!	!	!	!	!	!	!	!	!	!LO:LB:g=original	!	!	!	!	!	!	!	!	!	!	!	!	!
=67	=67	=67	=67	=67	=67	=67	=67	=67	=67	=67	=67	=67	=67	=67	=67	=67	=67	=67	=67	=67	=67	=67	=67	=67	=67
4F\	.	.	16f/LL	.	4a\	.	4.F\	-ra	.	4F/	in-	4.f\	o-	.	4a\	Mar-	.	4.f\	p	4.f\	p	4ff\	.	4ff\	.
.	.	.	16f/	.	.	.	.	.	.	.	.	.	.	.	.	.	.	.	.	.	.	.	.	.	.
.	.	.	16f/	.	.	.	.	.	.	.	.	.	.	.	.	.	.	.	.	.	.	.	.	.	.
.	.	.	16f/	.	.	.	.	.	.	.	.	.	.	.	.	.	.	.	.	.	.	.	.	.	.
.	.	.	.	.	8qqcc/	.	.	.	.	.	.	.	.	.	8qqa/	.	.	.	.	.	.	.	.	.	.
8G\	.	.	16f/	.	16b-T\LL	.	.	.	.	8G/	-clÿ-	.	.	.	16b-\LL	.	.	.	.	.	.	8gg\	.	8gg\	.
.	.	.	16f/JJ	.	32a\L	.	.	.	.	.	.	.	.	.	32a\L	.	.	.	.	.	.	.	.	.	.
.	.	.	.	.	32b-\JJJ	.	.	.	.	.	.	.	.	.	32b-\JJJ	.	.	.	.	.	.	.	.	.	.
!	!	!	!	!	!	!	!	!	!	!LO:LB:g=original	!	!	!	!	!	!	!	!	!	!	!	!	!	!	!
=68	=68	=68	=68	=68	=68	=68	=68	=68	=68	=68	=68	=68	=68	=68	=68	=68	=68	=68	=68	=68	=68	=68	=68	=68	=68
8A\L	.	.	16f/LL	.	8cc\L	.	4.F\	pro	.	(8A\L	-te	4.f\	-ra	.	(8cc\L	.	.	4.f\	.	4.f\	.	(8aa\L	.	8aa\L	.
.	.	.	16f/	.	.	.	.	.	.	.	.	.	.	.	.	.	.	.	.	.	.	.	.	.	.
(8B-\	.	.	16f/	.	(8dd\	.	.	.	.	8B-\)	.	.	.	.	8dd\)	.	.	.	.	.	.	8bb-\	.	(8bb-\	.
.	.	.	16f/	.	.	.	.	.	.	.	.	.	.	.	.	.	.	.	.	.	.	.	.	.	.
8c\J)	.	.	16f/	.	8ee-X\J)	.	.	.	.	8c\J	.	.	.	.	8ee-X\J	.	.	.	.	.	.	8ccc\J)	.	8ccc\J)	.
.	.	.	16f/JJ	.	.	.	.	.	.	.	.	.	.	.	.	.	.	.	.	.	.	.	.	.	.
!	!	!	!LO:LB:g=original	!	!	!	!	!	!	!	!	!	!	!	!	!	!	!	!	!	!	!	!	!	!
=69	=69	=69	=69	=69	=69	=69	=69	=69	=69	=69	=69	=69	=69	=69	=69	=69	=69	=69	=69	=69	=69	=69	=69	=69	=69
8d\L	.	.	16f/LL	.	4.ff\	.	4.F\	no	.	4.d\	.	4.f\	pro	.	4.ff\	.	.	4.f\	.	4.f\	.	4ddd\	.	4ddd\	.
.	.	.	16f/	.	.	.	.	.	.	.	.	.	.	.	.	.	.	.	.	.	.	.	.	.	.
8B-\J	.	.	16f/	.	.	.	.	.	.	.	.	.	.	.	.	.	.	.	.	.	.	.	.	.	.
.	.	.	16f/	.	.	.	.	.	.	.	.	.	.	.	.	.	.	.	.	.	.	.	.	.	.
8r	.	.	16f/	.	.	.	.	.	.	.	.	.	.	.	.	.	.	.	.	.	.	8r	.	8r	.
.	.	.	16f/JJ	.	.	.	.	.	.	.	.	.	.	.	.	.	.	.	.	.	.	.	.	.	.
!	!	!	!	!	!	!	!	!	!	!	!	!	!	!	!LO:LB:g=original	!	!	!	!	!	!	!	!	!	!
=70	=70	=70	=70	=70	=70	=70	=70	=70	=70	=70	=70	=70	=70	=70	=70	=70	=70	=70	=70	=70	=70	=70	=70	=70	=70
!	!	!	!	!	!	!	!	!	!	!	!	!	!	!	!	!	!	!	!	!	!	!LO:TX:a:t=21	!	!LO:TX:a:t=21	!
!	!	!	!	!	!	!	!	!	!	!	!	!	!	!	!	!	!	!	!	!	!	!LO:N:vis=00	!	!LO:N:vis=00	!
8d\L	.	.	16f/LL	.	8ff\L	.	4.F\	o-	.	(8d\L	.	4.f\	no-	.	8ff\L	.	.	4.f\	.	4.f\	.	1.r	.	1.r	.
.	.	.	16f/	.	.	.	.	.	.	.	.	.	.	.	.	.	.	.	.	.	.	.	.	.	.
8e-X\	.	.	16f/	.	(8gg\	.	.	.	.	8e-X\)	.	.	.	.	8gg\	.	.	.	.	.	.	.	.	.	.
.	.	.	16f/	.	.	.	.	.	.	.	.	.	.	.	.	.	.	.	.	.	.	.	.	.	.
8Bn\J	.	.	16f/	.	8dd\J)	.	.	.	.	8Bn\J	.	.	.	.	8dd\J	-tyr	.	.	.	.	.	.	.	.	.
.	.	.	16f/JJ	.	.	.	.	.	.	.	.	.	.	.	.	.	.	.	.	.	.	.	.	.	.
=71	=71	=71	=71	=71	=71	=71	=71	=71	=71	=71	=71	=71	=71	=71	=71	=71	=71	=71	=71	=71	=71	=71	=71	=71	=71
(8c\L	.	.	16f/LL	.	4.ee-X\	.	4.F\	-ra	.	4.c\	.	4.f\	-bis	.	4.ee-X\	De	.	4.f\	.	4.f\	.	.	.	.	.
.	.	.	16f/	.	.	.	.	.	.	.	.	.	.	.	.	.	.	.	.	.	.	.	.	.	.
8A\J)	.	.	16f/	.	.	.	.	.	.	.	.	.	.	.	.	.	.	.	.	.	.	.	.	.	.
.	.	.	16f/	.	.	.	.	.	.	.	.	.	.	.	.	.	.	.	.	.	.	.	.	.	.
8r	.	.	16f/	.	.	.	.	.	.	.	.	.	.	.	.	.	.	.	.	.	.	.	.	.	.
.	.	.	16f/JJ	.	.	.	.	.	.	.	.	.	.	.	.	.	.	.	.	.	.	.	.	.	.
!	!	!	!	!	!	!	!LO:LB:g=original	!	!	!	!	!	!	!	!	!	!	!	!	!	!	!	!	!	!
=72	=72	=72	=72	=72	=72	=72	=72	=72	=72	=72	=72	=72	=72	=72	=72	=72	=72	=72	=72	=72	=72	=72	=72	=72	=72
*	*	*	*	*	*	*	*	*	*	*	*	*	*ij	*	*	*	*	*	*	*	*	*	*	*	*
(8c\L	.	.	16f/LL	.	(8ee\L	.	4.F\	pro	.	(8c\L	in-	4.f\	pro	.	8ee\L	.	.	4.f\	.	4.f\	.	.	.	.	.
.	.	.	16f/	.	.	.	.	.	.	.	.	.	.	.	.	.	.	.	.	.	.	.	.	.	.
8d\)	.	.	16f/	.	8ff\)	.	.	.	.	8d\)	-clÿ-	.	.	.	8ff\	.	.	.	.	.	.	.	.	.	.
.	.	.	16f/	.	.	.	.	.	.	.	.	.	.	.	.	.	.	.	.	.	.	.	.	.	.
8A\J	.	.	16f/	.	8cc\J	.	.	.	.	8A\J	.	.	.	.	8cc\J	i	.	.	.	.	.	.	.	.	.
.	.	.	16f/JJ	.	.	.	.	.	.	.	.	.	.	.	.	.	.	.	.	.	.	.	.	.	.
!LO:LB:g=original	!	!	!	!	!	!	!	!	!	!	!	!	!	!	!	!	!	!	!	!	!	!	!	!	!
=73	=73	=73	=73	=73	=73	=73	=73	=73	=73	=73	=73	=73	=73	=73	=73	=73	=73	=73	=73	=73	=73	=73	=73	=73	=73
4B-\	.	.	16f/LL	.	4.dd\	.	4.F\	no-	.	4.B-\	-te	4.f\	no-	.	4.dd\	In-	.	4.f\	.	4.f\	.	.	.	.	.
.	.	.	16f/	.	.	.	.	.	.	.	.	.	.	.	.	.	.	.	.	.	.	.	.	.	.
.	.	.	16f/	.	.	.	.	.	.	.	.	.	.	.	.	.	.	.	.	.	.	.	.	.	.
.	.	.	16f/	.	.	.	.	.	.	.	.	.	.	.	.	.	.	.	.	.	.	.	.	.	.
8r	.	.	16f/	.	.	.	.	.	.	.	.	.	.	.	.	.	.	.	.	.	.	.	.	.	.
.	.	.	16f/JJ	.	.	.	.	.	.	.	.	.	.	.	.	.	.	.	.	.	.	.	.	.	.
!	!	!	!	!	!LO:LB:g=original	!	!	!	!	!	!	!	!	!	!	!	!	!	!	!	!	!	!	!	!
=74	=74	=74	=74	=74	=74	=74	=74	=74	=74	=74	=74	=74	=74	=74	=74	=74	=74	=74	=74	=74	=74	=74	=74	=74	=74
!	!	!	!	!	!	!	!	!	!	!	!	!	!	!	!	!	!	!LO:TX:a:t=1	!	!	!LO:DY:t=fp:	!LO:N:vis=00	!	!LO:N:vis=00	!
4En\	7 -	.	16g/LL	.	4.ddT\	.	4.En\	.	.	4.B-\	.	4.en\	.	.	4.dd-X\	-clÿ-	.	4.r	.	4.g\	fp	1.r	.	1.r	.
.	.	.	16g/	.	.	.	.	.	.	.	.	.	.	.	.	.	.	.	.	.	.	.	.	.	.
.	.	.	16g/	.	.	.	.	.	.	.	.	.	.	.	.	.	.	.	.	.	.	.	.	.	.
.	.	.	16g/	.	.	.	.	.	.	.	.	.	.	.	.	.	.	.	.	.	.	.	.	.	.
8r	.	.	16g/	.	.	.	.	.	.	.	.	.	.	.	.	.	.	.	.	.	.	.	.	.	.
.	.	.	16g/JJ	.	.	.	.	.	.	.	.	.	.	.	.	.	.	.	.	.	.	.	.	.	.
!	!	!	!	!	!	!	!	!	!	!LO:LB:g=original	!	!	!	!	!	!	!	!	!	!	!	!	!	!	!
=75	=75	=75	=75	=75	=75	=75	=75	=75	=75	=75	=75	=75	=75	=75	=75	=75	=75	=75	=75	=75	=75	=75	=75	=75	=75
8F\L	.	.	16f/LL	.	4cc\	.	4F\	-bis	.	4A\	.	4f\	-bis	.	4cc\	-ti	.	4F/	.	4f\	.	.	.	.	.
*	*	*	*	*	*	*	*	*	*	*	*	*	*Xij	*	*	*	*	*	*	*	*	*	*	*	*
.	.	.	16f/	.	.	.	.	.	.	.	.	.	.	.	.	.	.	.	.	.	.	.	.	.	.
8F\	.	.	16f/	.	.	.	.	.	.	.	.	.	.	.	.	.	.	.	.	.	.	.	.	.	.
.	.	.	16f/	.	.	.	.	.	.	.	.	.	.	.	.	.	.	.	.	.	.	.	.	.	.
8F\J	.	.	16f/	.	8r	.	8r	.	.	8r	.	8r	.	.	8r	.	.	8r	.	8r	.	.	.	.	.
.	.	.	16f/JJ	.	.	.	.	.	.	.	.	.	.	.	.	.	.	.	.	.	.	.	.	.	.
*	*	*	*Xtremolo	*	*	*	*	*	*	*	*	*	*	*	*	*	*	*	*	*	*	*	*	*	*
=76	=76	=76	=76	=76	=76	=76	=76	=76	=76	=76	=76	=76	=76	=76	=76	=76	=76	=76	=76	=76	=76	=76	=76	=76	=76
!	!	!	!	!	!	!	!	!	!	!	!	!	!	!	!	!	!	!LO:TX:a:t=15	!	!	!	!	!	!	!
!	!	!LO:DY:rj:t=fo	!	!LO:DY:t=fo.	!	!	!	!	!	!	!	!	!	!	!	!	!	!LO:N:vis=00	!	!LO:N:vis=00	!	!	!	!	!
8F#X\L	7 -	f	8f#X/L	f	16.ee-X\LL	.	8e-X\	Pat-	.	8e-X\	Mar-	8e-X\	Pa-	.	8ee-X\	Pa-	.	1.r	.	1.r	.	.	.	.	.
!	!	!	!	!	!	!LO:DY:t=for&colon;	!	!	!	!	!	!	!	!	!	!	!	!	!	!	!	!	!	!	!
.	.	.	.	.	32ff\K	f	.	.	.	.	.	.	.	.	.	.	.	.	.	.	.	.	.	.	.
8G\	.	.	8a/	.	16.dd\	.	8d\	-ro-	.	8d\	-tÿr	8d\	-tro-	.	8dd\	-tro-	.	.	.	.	.	.	.	.	.
.	.	.	.	.	32ee-\K	.	.	.	.	.	.	.	.	.	.	.	.	.	.	.	.	.	.	.	.
8A\J	.	.	8f#/J	.	16.cc\	.	8c\	-ne	.	8c\	.	8c\	-ne	.	8cc\	-ne	.	.	.	.	.	.	.	.	.
.	.	.	.	.	32dd\JJk	.	.	.	.	.	.	.	.	.	.	.	.	.	.	.	.	.	.	.	.
=77	=77	=77	=77	=77	=77	=77	=77	=77	=77	=77	=77	=77	=77	=77	=77	=77	=77	=77	=77	=77	=77	=77	=77	=77	=77
!	!	!	!LO:TX:a:t=x	!	!	!	!	!	!	!	!	!	!	!	!	!	!	!	!	!	!	!	!	!	!
8B-\L	.	.	8g/L	.	16.b-\LL	.	8B-\L	Sin-	.	8B-\L	De-	8b-\	Sin-	.	8b-\	Sin-	.	.	.	.	.	.	.	.	.
.	.	.	.	.	32cc\K	.	.	.	.	.	.	.	.	.	.	.	.	.	.	.	.	.	.	.	.
8c\	.	.	8f#X/	.	16.a\	.	8A\J	.	.	8A\J	.	8a\	-gu-	.	8a\	.	.	.	.	.	.	.	.	.	.
.	.	.	.	.	32b-\K	.	.	.	.	.	.	.	.	.	.	.	.	.	.	.	.	.	.	.	.
8d\J	.	.	8g/J	.	16.g\	.	8G\	-gu-	.	8G\	-i	8g\	-la-	.	8g\	-gu-	.	.	.	.	.	.	.	.	.
.	.	.	.	.	32a\JJk	.	.	.	.	.	.	.	.	.	.	.	.	.	.	.	.	.	.	.	.
!	!	!	!	!	!	!	!	!	!	!	!	!	!LO:LB:g=original	!	!	!	!	!	!	!	!	!	!	!	!
=78	=78	=78	=78	=78	=78	=78	=78	=78	=78	=78	=78	=78	=78	=78	=78	=78	=78	=78	=78	=78	=78	=78	=78	=78	=78
!	!	!	!	!	!	!	!	!	!	!	!	!	!	!	!	!	!	!	!	!	!	!LO:N:vis=00	!	!LO:N:vis=00	!
4.e-X\	6 #2	.	8a/L	.	16.f#X\LL	.	4.F#X\	-lar-	.	4.F#X/	De-	4.f#X\	.	.	4.f#X/	-lar-	.	.	.	.	.	1.r	.	1.r	.
.	.	.	.	.	32a\K	.	.	.	.	.	.	.	.	.	.	.	.	.	.	.	.	.	.	.	.
.	.	.	8f#X/	.	16.cc\	.	.	.	.	.	.	.	.	.	.	.	.	.	.	.	.	.	.	.	.
.	.	.	.	.	32ee-X\K	.	.	.	.	.	.	.	.	.	.	.	.	.	.	.	.	.	.	.	.
.	.	.	8f#/J	.	16.dd\	.	.	.	.	.	.	.	.	.	.	.	.	.	.	.	.	.	.	.	.
.	.	.	.	.	32cc\JJk	.	.	.	.	.	.	.	.	.	.	.	.	.	.	.	.	.	.	.	.
=79	=79	=79	=79	=79	=79	=79	=79	=79	=79	=79	=79	=79	=79	=79	=79	=79	=79	=79	=79	=79	=79	=79	=79	=79	=79
16.d\LL	.	.	16.g\LL	.	16.b-\LL	.	4G\	-is	.	8G/	-i	8g\	-ris	.	4g\	-is	.	.	.	.	.	.	.	.	.
32c\K	.	.	32a\K	.	32a\K	.	.	.	.	.	.	.	.	.	.	.	.	.	.	.	.	.	.	.	.
16.B-\	.	.	16.b-\	.	16.g\	.	.	.	.	8r	.	8r	.	.	.	.	.	.	.	.	.	.	.	.	.
32A\K	.	.	32cc\K	.	32a\K	.	.	.	.	.	.	.	.	.	.	.	.	.	.	.	.	.	.	.	.
16.G\	.	.	16.b-\	.	16.b-\	.	8r	.	.	8r	.	8r	.	.	8r	.	.	.	.	.	.	.	.	.	.
32F\JJk	.	.	32a\JJk	.	32cc\JJk	.	.	.	.	.	.	.	.	.	.	.	.	.	.	.	.	.	.	.	.
!	!	!	!LO:LB:g=original	!	!	!	!LO:LB:g=original	!	!	!	!	!	!	!	!	!	!	!	!	!	!	!	!	!	!
=80	=80	=80	=80	=80	=80	=80	=80	=80	=80	=80	=80	=80	=80	=80	=80	=80	=80	=80	=80	=80	=80	=80	=80	=80	=80
!	!	!	!	!	!	!	!	!	!	!	!	!	!	!	!	!	!	!LO:N:vis=00	!	!LO:N:vis=00	!	!	!	!	!
8En\L	7	.	8g/L	.	16.dd\LL	.	8d\	Pe-	.	8d\	Pa-	8dd\	O-	.	8dd\	Pa-	.	1.r	.	1.r	.	.	.	.	.
.	.	.	.	.	32ee-X\K	.	.	.	.	.	.	.	.	.	.	.	.	.	.	.	.	.	.	.	.
8F\	.	.	8a/	.	16.cc\	.	8c\	-ri-	.	8c\	.	8cc\	-ra	.	8cc\	-tro-	.	.	.	.	.	.	.	.	.
.	.	.	.	.	32dd\K	.	.	.	.	.	.	.	.	.	.	.	.	.	.	.	.	.	.	.	.
8G\J	.	.	8g/J	.	16.b-\	.	8B-\	-cliſ	.	8B-\	.	8b-\	pro	.	8b-\	-ne	.	.	.	.	.	.	.	.	.
.	.	.	.	.	32cc\JJk	.	.	.	.	.	.	.	.	.	.	.	.	.	.	.	.	.	.	.	.
!LO:LB:g=original	!	!	!	!	!	!	!	!	!	!LO:LB:g=original	!	!	!	!	!LO:LB:g=original	!	!	!	!	!	!	!	!	!	!
=81	=81	=81	=81	=81	=81	=81	=81	=81	=81	=81	=81	=81	=81	=81	=81	=81	=81	=81	=81	=81	=81	=81	=81	=81	=81
8A\L	.	.	8f/L	.	16.a\LL	.	(8A\L	tan-	.	8A\L	-tro-	8a\	.	.	8a\	Sin-	.	.	.	.	.	.	.	.	.
.	.	.	.	.	32b-\K	.	.	.	.	.	.	.	.	.	.	.	.	.	.	.	.	.	.	.	.
8B-\	.	.	8e/	.	16.g\	.	8G\J)	.	.	8G\J	.	8g\	.	.	8g\	-gu-	.	.	.	.	.	.	.	.	.
.	.	.	.	.	32a\K	.	.	.	.	.	.	.	.	.	.	.	.	.	.	.	.	.	.	.	.
8c\J	.	.	8f/J	.	16.f\	.	8F\	.	.	8F/	.	8f\	.	.	8f\	.	.	.	.	.	.	.	.	.	.
.	.	.	.	.	32g\JJk	.	.	.	.	.	.	.	.	.	.	.	.	.	.	.	.	.	.	.	.
!	!	!	!	!	!LO:LB:g=original	!	!	!	!	!	!	!	!	!	!	!	!	!	!	!	!	!	!	!	!
=82	=82	=82	=82	=82	=82	=82	=82	=82	=82	=82	=82	=82	=82	=82	=82	=82	=82	=82	=82	=82	=82	=82	=82	=82	=82
!	!	!	!	!	!	!	!	!	!	!	!	!	!	!	!	!	!	!	!	!	!	!LO:N:vis=00	!	!LO:N:vis=00	!
4.d\	6 2	.	8g/L	.	16.en/LL	.	4E\	.	.	4.E/	.	4.e\	no-	.	4.e/	-lar-	.	.	.	.	.	1.r	.	1.r	.
.	.	.	.	.	32g/JJk	.	.	.	.	.	.	.	.	.	.	.	.	.	.	.	.	.	.	.	.
.	.	.	8e/	.	16.b-\LL	.	.	.	.	.	.	.	.	.	.	.	.	.	.	.	.	.	.	.	.
.	.	.	.	.	32dd\K	.	.	.	.	.	.	.	.	.	.	.	.	.	.	.	.	.	.	.	.
.	.	.	8e/J	.	16.cc\	.	8E\	-ti-	.	.	.	.	.	.	.	.	.	.	.	.	.	.	.	.	.
.	.	.	.	.	32b-\JJk	.	.	.	.	.	.	.	.	.	.	.	.	.	.	.	.	.	.	.	.
=83	=83	=83	=83	=83	=83	=83	=83	=83	=83	=83	=83	=83	=83	=83	=83	=83	=83	=83	=83	=83	=83	=83	=83	=83	=83
16.c\LL	.	.	16.f/LL	.	16.a\LL	.	4F\	-um	.	4F/	-ne	8f\	-bis	.	4f/	-is	.	.	.	.	.	.	.	.	.
32B-\K	.	.	32e/K	.	32g\K	.	.	.	.	.	.	.	.	.	.	.	.	.	.	.	.	.	.	.	.
16.c\	.	.	16.f/	.	16.a\	.	.	.	.	.	.	8r	.	.	.	.	.	.	.	.	.	.	.	.	.
32A\K	.	.	32a/K	.	32cc\K	.	.	.	.	.	.	.	.	.	.	.	.	.	.	.	.	.	.	.	.
16.G\	.	.	16.g/	.	16.b-\	.	8r	.	.	8r	.	8r	.	.	8r	.	.	.	.	.	.	.	.	.	.
32F\JJk	.	.	32f/JJk	.	32a\JJk	.	.	.	.	.	.	.	.	.	.	.	.	.	.	.	.	.	.	.	.
=84	=84	=84	=84	=84	=84	=84	=84	=84	=84	=84	=84	=84	=84	=84	=84	=84	=84	=84	=84	=84	=84	=84	=84	=84	=84
*	*	*	*tremolo	*	*	*	*	*	*	*	*	*	*	*	*	*	*	*	*	*	*	*	*	*	*
!	!	!	!	!	!	!	!LO:TX:a:t=2	!	!	!LO:TX:a:t=2	!	!	!	!	!	!	!	!	!	!	!	!	!	!	!
!	!	!	!	!LO:DY:rj	!	!	!LO:N:vis=0	!	!	!LO:N:vis=0	!	!LO:N:vis=0	!	!	!LO:N:vis=0	!	!	!LO:N:vis=00	!	!LO:N:vis=00	!	!	!	!	!
4E\	.	.	16c/LL	p	4g/	p	2.r	.	.	2.r	.	2.r	.	.	2.r	.	.	1.r	.	1.r	.	.	.	.	.
.	.	.	16c/	.	.	.	.	.	.	.	.	.	.	.	.	.	.	.	.	.	.	.	.	.	.
.	.	.	16c/	.	.	.	.	.	.	.	.	.	.	.	.	.	.	.	.	.	.	.	.	.	.
.	.	.	16c/	.	.	.	.	.	.	.	.	.	.	.	.	.	.	.	.	.	.	.	.	.	.
8F\	-	.	16c/	.	(16a-X/LL	.	.	.	.	.	.	.	.	.	.	.	.	.	.	.	.	.	.	.	.
.	.	.	16c/JJ	.	16cc/JJ)	.	.	.	.	.	.	.	.	.	.	.	.	.	.	.	.	.	.	.	.
=85	=85	=85	=85	=85	=85	=85	=85	=85	=85	=85	=85	=85	=85	=85	=85	=85	=85	=85	=85	=85	=85	=85	=85	=85	=85
8G\L	6\	.	16c/LL	.	(16cc\LL	.	.	.	.	.	.	.	.	.	.	.	.	.	.	.	.	.	.	.	.
.	.	.	16c/	.	16b-\)	.	.	.	.	.	.	.	.	.	.	.	.	.	.	.	.	.	.	.	.
8A-X\	.	.	16c/	.	(16dd-X\	.	.	.	.	.	.	.	.	.	.	.	.	.	.	.	.	.	.	.	.
.	.	.	16c/	.	16cc\)	.	.	.	.	.	.	.	.	.	.	.	.	.	.	.	.	.	.	.	.
8F\J	.	.	16c/	.	(16b-X\	.	.	.	.	.	.	.	.	.	.	.	.	.	.	.	.	.	.	.	.
.	.	.	16c/JJ	.	16a-X\JJ)	.	.	.	.	.	.	.	.	.	.	.	.	.	.	.	.	.	.	.	.
=86	=86	=86	=86	=86	=86	=86	=86	=86	=86	=86	=86	=86	=86	=86	=86	=86	=86	=86	=86	=86	=86	=86	=86	=86	=86
!	!	!	!	!	!	!	!	!	!	!	!	!	!	!	!	!	!	!	!	!	!	!LO:N:vis=00	!	!LO:N:vis=00	!
4E\	.	.	16c/LL	.	4g/	.	4G\	or-	.	4G/	o-	4g\	or-	.	4g\	or-	.	.	.	.	.	1.r	.	1.r	.
.	.	.	16c/	.	.	.	.	.	.	.	.	.	.	.	.	.	.	.	.	.	.	.	.	.	.
.	.	.	16c/	.	.	.	.	.	.	.	.	.	.	.	.	.	.	.	.	.	.	.	.	.	.
.	.	.	16c/	.	.	.	.	.	.	.	.	.	.	.	.	.	.	.	.	.	.	.	.	.	.
8F\	-	.	16c/	.	(16a-X/LL	.	16A-X\LL	.	.	(16A-X/LL	-ra	16a-X\LL	.	.	(16a-X\LL	.	.	.	.	.	.	.	.	.	.
.	.	.	16c/JJ	.	16cc/JJ)	.	16c\JJ	.	.	16c/JJ)	.	16cc\JJ	.	.	16cc\JJ)	.	.	.	.	.	.	.	.	.	.
=87	=87	=87	=87	=87	=87	=87	=87	=87	=87	=87	=87	=87	=87	=87	=87	=87	=87	=87	=87	=87	=87	=87	=87	=87	=87
(8G\L	.	.	16c/LL	.	(16cc\LL	.	(16c\LL	-a	.	16c\LL	pro	16cc\LL	-a	.	(16cc\LL	-a	.	.	.	.	.	.	.	.	.
.	.	.	16c/	.	16b-\)	.	16B-\)	.	.	16B-\	.	16b-\	.	.	16b-\)	.	.	.	.	.	.	.	.	.	.
8A-X\)	.	.	16c/	.	16dd-X\	.	(16d-X\	.	.	16d-X\	.	16dd-X\	.	.	(16dd-X\	ra	.	.	.	.	.	.	.	.	.
.	.	.	16c/	.	(16cc\	.	16c\)	.	.	16c\	.	16cc\	.	.	16cc\)	.	.	.	.	.	.	.	.	.	.
8F\J	.	.	16c/	.	(16b-\)	.	(16B-\	.	.	16B-\	.	16b-\	.	.	(16b-\	.	.	.	.	.	.	.	.	.	.
.	.	.	16c/JJ	.	16a-X\JJ)	.	16A-X\JJ)	.	.	16A-X\JJ	.	16a\JJ	.	.	16a-X\JJ)	.	.	.	.	.	.	.	.	.	.
!LO:PB:g=original	!	!	!	!	!	!	!	!	!	!	!	!LO:LB:g=original	!	!	!	!	!	!	!	!	!	!	!	!	!
=88	=88	=88	=88	=88	=88	=88	=88	=88	=88	=88	=88	=88	=88	=88	=88	=88	=88	=88	=88	=88	=88	=88	=88	=88	=88
!	!	!	!	!	!	!	!	!	!	!	!	!	!	!	!	!	!	!LO:N:vis=0	!	!LO:N:vis=0	!	!	!	!	!
4E\	.	.	16c/LL	.	4g/	.	4G\	.	.	4G/	no-	4g\	pro	.	4g\	pro	.	2.r	.	2.r	.	.	.	.	.
.	.	.	16c/	.	.	.	.	.	.	.	.	.	.	.	.	.	.	.	.	.	.	.	.	.	.
.	.	.	16c/	.	.	.	.	.	.	.	.	.	.	.	.	.	.	.	.	.	.	.	.	.	.
.	.	.	16c/	.	.	.	.	.	.	.	.	.	.	.	.	.	.	.	.	.	.	.	.	.	.
8F\	-	.	16c/	.	(16cc/LL	.	(16c\LL	pro	.	(16c/LL	.	8a-X\	.	.	16cc\LL	.	.	.	.	.	.	.	.	.	.
.	.	.	16c/JJ	.	16a-X/JJ)	.	16A-X\JJ)	.	.	16A-X/JJ)	.	.	.	.	16a-X\JJ	.	.	.	.	.	.	.	.	.	.
!	!	!	!	!	!	!	!LO:LB:g=original	!	!	!LO:LB:g=original	!	!	!	!	!	!	!	!	!	!	!	!	!	!	!
=89	=89	=89	=89	=89	=89	=89	=89	=89	=89	=89	=89	=89	=89	=89	=89	=89	=89	=89	=89	=89	=89	=89	=89	=89	=89
4E\	.	.	16c/LL	.	4g/	.	4G\	no-	.	4G/	.	4g\	no-	.	4g\	no-	.	.	.	.	.	.	.	.	.
.	.	.	16c/	.	.	.	.	.	.	.	.	.	.	.	.	.	.	.	.	.	.	.	.	.	.
.	.	.	16c/	.	.	.	.	.	.	.	.	.	.	.	.	.	.	.	.	.	.	.	.	.	.
.	.	.	16c/	.	.	.	.	.	.	.	.	.	.	.	.	.	.	.	.	.	.	.	.	.	.
8F\	-	.	16c/	.	(16cc/LL	.	(16c\LL	.	.	(16c/LL	.	16cc\LL	.	.	16cc\LL	.	.	.	.	.	.	.	.	.	.
.	.	.	16c/JJ	.	16a-X/JJ)	.	16A-X\JJ)	.	.	16A-X/JJ)	.	16a-X\JJ	.	.	16a-X\JJ	.	.	.	.	.	.	.	.	.	.
*	*	*	*Xtremolo	*	*	*	*	*	*	*	*	*	*	*	*	*	*	*	*	*	*	*	*	*	*
!	!	!	!LO:LB:g=original	!	!LO:LB:g=original	!	!	!	!	!	!	!	!	!	!	!	!	!	!	!	!	!	!	!	!
=90	=90	=90	=90	=90	=90	=90	=90	=90	=90	=90	=90	=90	=90	=90	=90	=90	=90	=90	=90	=90	=90	=90	=90	=90	=90
4C\	.	.	8c/	.	4g/	.	4G\	-bis	.	4G/	-bis	4g\	-bis	.	4g\	-bis	.	4.r	.	4.r	.	4.r	.	4.r	.
.	.	.	16cc'\LL	.	.	.	.	.	.	.	.	.	.	.	.	.	.	.	.	.	.	.	.	.	.
.	.	.	16b-'\	.	.	.	.	.	.	.	.	.	.	.	.	.	.	.	.	.	.	.	.	.	.
!LO:TX:b:i:t=dolce	!	!	!	!	!	!	!	!	!	!	!	!	!	!	!	!	!	!	!	!	!	!	!	!	!
8r	.	.	16a'\	.	8r	.	8r	.	.	8r	.	8r	.	.	8r	.	.	.	.	.	.	.	.	.	.
.	.	.	16g'\JJ	.	.	.	.	.	.	.	.	.	.	.	.	.	.	.	.	.	.	.	.	.	.
!	!	!	!	!	!	!	!	!	!	!	!	!	!	!	!	!	!	!	!	!	!	!LO:LB:g=original	!	!	!
=91	=91	=91	=91	=91	=91	=91	=91	=91	=91	=91	=91	=91	=91	=91	=91	=91	=91	=91	=91	=91	=91	=91	=91	=91	=91
*	*	*	*tremolo	*	*	*	*	*	*	*	*	*	*	*	*	*	*	*	*	*	*	*	*	*	*
!	!	!	!LO:TX:b:t=Joropofo (?)	!	!	!	!	!	!	!	!	!	!	!	!	!	!	!	!LO:DY:rj:t=p	!	!	!LO:TX:b:t=dolce	!	!LO:TX:b:t=dolce	!
4F\	.	.	16f/LL	.	4an/	.	4.F\	o-	.	4F/	Pa-	4.f\	o-	.	4an\	Pa-	.	4.F/	p	4.f\	p	4ff\	.	4aa\	.
.	.	.	16f/	.	.	.	.	.	.	.	.	.	.	.	.	.	.	.	.	.	.	.	.	.	.
.	.	.	16f/	.	.	.	.	.	.	.	.	.	.	.	.	.	.	.	.	.	.	.	.	.	.
.	.	.	16f/	.	.	.	.	.	.	.	.	.	.	.	.	.	.	.	.	.	.	.	.	.	.
.	.	.	.	.	8qqcc/	.	.	.	.	.	.	.	.	.	8qqb-/	.	.	.	.	.	.	.	.	.	.
8G\	.	.	16f/	.	16b-/LL	.	.	.	.	8G/	.	.	.	.	16b-\LL	.	.	.	.	.	.	8gg\	.	8bb-\	.
.	.	.	16f/JJ	.	32a/L	.	.	.	.	.	.	.	.	.	32a\L	.	.	.	.	.	.	.	.	.	.
.	.	.	.	.	32b-/JJJ	.	.	.	.	.	.	.	.	.	32b-\JJJ	.	.	.	.	.	.	.	.	.	.
!	!	!	!	!	!	!	!	!	!	!	!	!	!	!	!LO:LB:g=original	!	!	!	!	!	!	!	!	!LO:LB:g=original	!
=92	=92	=92	=92	=92	=92	=92	=92	=92	=92	=92	=92	=92	=92	=92	=92	=92	=92	=92	=92	=92	=92	=92	=92	=92	=92
!	!	!	!	!	!	!	!	!	!	!LO:TX:t=P:problem=mixed beam	!	!	!	!	!	!	!	!	!	!	!	!	!	!	!
(8An\L	.	.	16f/LL	.	(8cc\L	.	4.F\	-ra	.	8A/L	-tro-	4.f\	-ra	.	(8cc\L	-tro-	.	4.F/	.	4.f\	.	(8aa\L	.	(8ccc\L	.
.	.	.	16f/	.	.	.	.	.	.	.	.	.	.	.	.	.	.	.	.	.	.	.	.	.	.
8F\)	.	.	16f/	.	8a\)	.	.	.	.	8F/	.	.	.	.	8a\)	.	.	.	.	.	.	8ff\)	.	8aa\)	.
.	.	.	16f/	.	.	.	.	.	.	.	.	.	.	.	.	.	.	.	.	.	.	.	.	.	.
8d\J	.	.	16f/	.	8ff`\J	.	.	.	.	8d\J	.	.	.	.	8ff\J	-ne	.	.	.	.	.	8ddd\J	.	8fff\J	.
.	.	.	16f/JJ	.	.	.	.	.	.	.	.	.	.	.	.	.	.	.	.	.	.	.	.	.	.
!	!	!	!	!	!	!	!	!	!	!	!	!	!	!	!	!	!	!LO:LB:g=original	!	!	!	!	!	!	!
=93	=93	=93	=93	=93	=93	=93	=93	=93	=93	=93	=93	=93	=93	=93	=93	=93	=93	=93	=93	=93	=93	=93	=93	=93	=93
*	*	*	*	*	*	*	*	*	*	*	*	*	*ij	*	*	*	*	*	*	*	*	*	*	*	*
(8d\L	.	.	16f/LL	.	(8ff\L	.	4.F\	o-	.	8d\L	.	4.f\	o-	.	8ff\L	Sin-	.	4.F/	.	4.f\	.	(8ddd\L	.	8fff\L	.
.	.	.	16f/	.	.	.	.	.	.	.	.	.	.	.	.	.	.	.	.	.	.	.	.	.	.
8c\	.	.	16f/	.	8ee\)	.	.	.	.	(8c\	.	.	.	.	8ee\	.	.	.	.	.	.	8ccc\)	.	(8eee\	.
.	.	.	16f/	.	.	.	.	.	.	.	.	.	.	.	.	.	.	.	.	.	.	.	.	.	.
8B-\J)	.	.	16f/	.	8dd`\J	.	.	.	.	8B-\J)	.	.	.	.	8dd\J	-gu	.	.	.	.	.	8bb-\J	.	8ddd\J)	.
.	.	.	16f/JJ	.	.	.	.	.	.	.	.	.	.	.	.	.	.	.	.	.	.	.	.	.	.
!	!	!	!	!	!	!	!	!	!	!	!	!	!	!	!	!	!	!	!	!LO:LB:g=original	!	!	!	!	!
=94	=94	=94	=94	=94	=94	=94	=94	=94	=94	=94	=94	=94	=94	=94	=94	=94	=94	=94	=94	=94	=94	=94	=94	=94	=94
(8B-\L	.	.	16f/LL	.	(8dd\L	.	4.F\	-ra	.	8B-\L	-ne	4.f\	-ra	.	8dd\	la-	.	4.F/	.	4.f\	.	(8bb-\L	.	(8ddd\L	.
.	.	.	16f/	.	.	.	.	.	.	.	.	.	.	.	.	.	.	.	.	.	.	.	.	.	.
8A\	.	.	16f/	.	8cc\)	.	.	.	.	8A\J	.	.	.	.	8cc\	-ris	.	.	.	.	.	8aa\J)	.	8ccc\J)	.
.	.	.	16f/	.	.	.	.	.	.	.	.	.	.	.	.	.	.	.	.	.	.	.	.	.	.
8G\J)	.	.	16f/	.	8b-\J	.	.	.	.	8r	.	.	.	.	8r	.	.	.	.	.	.	8r	.	8r	.
.	.	.	16f/JJ	.	.	.	.	.	.	.	.	.	.	.	.	.	.	.	.	.	.	.	.	.	.
=95	=95	=95	=95	=95	=95	=95	=95	=95	=95	=95	=95	=95	=95	=95	=95	=95	=95	=95	=95	=95	=95	=95	=95	=95	=95
*	*	*	*	*	*	*	*	*ij	*	*	*	*	*	*	*	*	*	*	*	*	*	*	*	*	*
4F\	.	.	16f/LL	.	4a\	.	4.F\	o-	.	4F/	Sin-	4.f\	o-	.	4a\	Pa-	.	4.F/	.	4.f\	.	4ff\	.	4aa\	.
.	.	.	16f/	.	.	.	.	.	.	.	.	.	.	.	.	.	.	.	.	.	.	.	.	.	.
.	.	.	16f/	.	.	.	.	.	.	.	.	.	.	.	.	.	.	.	.	.	.	.	.	.	.
.	.	.	16f/	.	.	.	.	.	.	.	.	.	.	.	.	.	.	.	.	.	.	.	.	.	.
.	.	.	.	.	8qqcc/	.	.	.	.	.	.	.	.	.	8qqb-/	.	.	.	.	.	.	.	.	.	.
8G\	.	.	16f/	.	16b-\LL	.	.	.	.	8G/	-gu-	.	.	.	16b-\LL	-tro-	.	.	.	.	.	8gg\	.	8bb-\	.
.	.	.	16f/JJ	.	(32a\L	.	.	.	.	.	.	.	.	.	32a\L	.	.	.	.	.	.	.	.	.	.
.	.	.	.	.	32b-\JJJ)	.	.	.	.	.	.	.	.	.	32b-\JJJ	.	.	.	.	.	.	.	.	.	.
!LO:LB:g=original	!	!	!	!	!	!	!	!	!	!LO:LB:g=original	!	!	!	!	!	!	!	!	!	!	!	!	!	!	!
=96	=96	=96	=96	=96	=96	=96	=96	=96	=96	=96	=96	=96	=96	=96	=96	=96	=96	=96	=96	=96	=96	=96	=96	=96	=96
!	!	!	!	!	!	!	!	!	!	!LO:TX:t=P:problem=mixed beam	!	!	!	!	!	!	!	!	!	!	!	!	!	!	!
(8A\L	.	.	16f/LL	.	(8cc\L	.	4.F\	-ra	.	8A/L	-la-	4.f\	-ra	.	(8cc\L	.	.	4.F/	.	4.f\	.	(8aa\L	.	(8ccc\L	.
.	.	.	16f/	.	.	.	.	.	.	.	.	.	.	.	.	.	.	.	.	.	.	.	.	.	.
8F\)	.	.	16f/	.	8a\)	.	.	.	.	8F/	.	.	.	.	8a\)	.	.	.	.	.	.	8ff\	.	8aa\)	.
.	.	.	16f/	.	.	.	.	.	.	.	.	.	.	.	.	.	.	.	.	.	.	.	.	.	.
8d\J	.	.	16f/	.	8ff\J	.	.	.	.	8d\J	.	.	.	.	8ff\J	-ne	.	.	.	.	.	8ddd\J)	.	8fff\J	.
.	.	.	16f/JJ	.	.	.	.	.	.	.	.	.	.	.	.	.	.	.	.	.	.	.	.	.	.
=97	=97	=97	=97	=97	=97	=97	=97	=97	=97	=97	=97	=97	=97	=97	=97	=97	=97	=97	=97	=97	=97	=97	=97	=97	=97
8d\L	.	.	16f/LL	.	(8ff\L	.	4.F\	o-	.	8d\L	.	4.f\	o-	.	8ff\L	Sin-	.	4.F/	.	4.f\	.	8ddd\L	.	8fff\L	.
.	.	.	16f/	.	.	.	.	.	.	.	.	.	.	.	.	.	.	.	.	.	.	.	.	.	.
(8c\	.	.	16f/	.	8ee\)	.	.	.	.	(8c\	.	.	.	.	8ee\	-gu-	.	.	.	.	.	(8ccc\	.	(8eee\	.
.	.	.	16f/	.	.	.	.	.	.	.	.	.	.	.	.	.	.	.	.	.	.	.	.	.	.
8B-\J)	.	.	16f/	.	8dd\J	.	.	.	.	8B-\J)	.	.	.	.	8dd\J	.	.	.	.	.	.	8bb-\J)	.	8ddd\J)	.
.	.	.	16f/JJ	.	.	.	.	.	.	.	.	.	.	.	.	.	.	.	.	.	.	.	.	.	.
!	!	!	!	!	!	!	!LO:LB:g=original	!	!	!	!	!	!	!	!	!	!	!	!	!	!	!	!	!	!
=98	=98	=98	=98	=98	=98	=98	=98	=98	=98	=98	=98	=98	=98	=98	=98	=98	=98	=98	=98	=98	=98	=98	=98	=98	=98
(8B-\L	.	.	16f/LL	.	(8dd\L	.	4.F\	-ra	.	8B-\L	.	4.f\	-ra	.	8dd\	-la-	.	4.F/	.	4.f\	.	(8bb-\L	.	(8ddd\L	.
*	*	*	*	*	*	*	*	*Xij	*	*	*	*	*Xij	*	*	*	*	*	*	*	*	*	*	*	*
.	.	.	16f/	.	.	.	.	.	.	.	.	.	.	.	.	.	.	.	.	.	.	.	.	.	.
8A\J)	.	.	16f/	.	8cc\J)	.	.	.	.	8A\J	-ris	.	.	.	8cc\	-ris	.	.	.	.	.	8aa\J)	.	8ccc\J)	.
.	.	.	16f/	.	.	.	.	.	.	.	.	.	.	.	.	.	.	.	.	.	.	.	.	.	.
8r	.	.	16f/	.	8r	.	.	.	.	8r	.	.	.	.	8r	.	.	.	.	.	.	8r	.	8r	.
.	.	.	16f/JJ	.	.	.	.	.	.	.	.	.	.	.	.	.	.	.	.	.	.	.	.	.	.
=99	=99	=99	=99	=99	=99	=99	=99	=99	=99	=99	=99	=99	=99	=99	=99	=99	=99	=99	=99	=99	=99	=99	=99	=99	=99
4E\	6	.	16c/LL	.	4g/	.	4E\	o-	.	4.c\	o-	4.c/	o-	.	4g\	Pa-	.	4.C/	.	4.c/	.	4ee\	.	4gg\	.
.	.	.	16c/	.	.	.	.	.	.	.	.	.	.	.	.	.	.	.	.	.	.	.	.	.	.
.	.	.	16c/	.	.	.	.	.	.	.	.	.	.	.	.	.	.	.	.	.	.	.	.	.	.
.	.	.	16c/	.	.	.	.	.	.	.	.	.	.	.	.	.	.	.	.	.	.	.	.	.	.
.	.	.	.	.	8qqb-/	.	.	.	.	.	.	.	.	.	8qqa/	.	.	.	.	.	.	.	.	.	.
8F\	3	.	16c/	.	16at/LL	.	8F\	-ra	.	.	.	.	.	.	16b-\LL	-tro-	.	.	.	.	.	8ff\	.	8aa\	.
.	.	.	16c/JJ	.	32g/L	.	.	.	.	.	.	.	.	.	32g\L	.	.	.	.	.	.	.	.	.	.
.	.	.	.	.	32a/JJJ	.	.	.	.	.	.	.	.	.	32a\JJJ	.	.	.	.	.	.	.	.	.	.
!	!	!	!	!	!	!	!	!	!	!	!	!	!	!	!LO:LB:g=original	!	!	!	!	!	!	!LO:LB:g=original	!	!LO:LB:g=original	!
=100	=100	=100	=100	=100	=100	=100	=100	=100	=100	=100	=100	=100	=100	=100	=100	=100	=100	=100	=100	=100	=100	=100	=100	=100	=100
8G\L	3_	.	16c/LL	.	8b-/L	.	(8G\L	pro	.	4.c\	-ra	4.c/	-ra	.	(8b-\L	.	.	4.C/	.	4.c/	.	8gg\L	.	8bb-\L	.
.	.	.	16c/	.	.	.	.	.	.	.	.	.	.	.	.	.	.	.	.	.	.	.	.	.	.
8E\	.	.	16c/	.	(8g/	.	8E\J)	.	.	.	.	.	.	.	8g\)	.	.	.	.	.	.	(8ee\	.	(8gg\	.
.	X	.	16c/	.	.	.	.	.	.	.	.	.	.	.	.	.	.	.	.	.	.	.	.	.	.
8F\J	.	.	16c/	.	8a/J)	.	8F\	no-	.	.	.	.	.	.	8a\J	.	.	.	.	.	.	8ff\J)	.	8aa\J)	.
.	.	.	16c/JJ	.	.	.	.	.	.	.	.	.	.	.	.	.	.	.	.	.	.	.	.	.	.
!	!	!	!	!	!LO:LB:g=original	!	!	!	!	!	!	!LO:LB:g=original	!	!	!	!	!	!	!	!	!	!	!	!	!
=101	=101	=101	=101	=101	=101	=101	=101	=101	=101	=101	=101	=101	=101	=101	=101	=101	=101	=101	=101	=101	=101	=101	=101	=101	=101
(8G\L	.	.	16c/LL	.	(8b-/L	.	(8G\	.	.	4.c\	pro	4.c/	pro	.	(8b-\	.	.	4.C/	.	4.c/	.	(8gg\L	.	(8bb-\L	.
.	.	.	16c/	.	.	.	.	.	.	.	.	.	.	.	.	.	.	.	.	.	.	.	.	.	.
8E\)	.	.	16c/	.	8g/)	.	8E\)	.	.	.	.	.	.	.	8g\)	.	.	.	.	.	.	8ee\)	.	8gg\)	.
.	.	.	16c/	.	.	.	.	.	.	.	.	.	.	.	.	.	.	.	.	.	.	.	.	.	.
8F\J	.	.	16c/	.	8a`/J	.	8F\	.	.	.	.	.	.	.	8a\	.	.	.	.	.	.	8ff`\J	.	8aa\J	.
.	.	.	16c/JJ	.	.	.	.	.	.	.	.	.	.	.	.	.	.	.	.	.	.	.	.	.	.
!	!	!	!LO:LB:g=original	!	!	!	!	!	!	!	!	!	!	!	!	!	!	!	!	!	!	!	!	!	!
=102	=102	=102	=102	=102	=102	=102	=102	=102	=102	=102	=102	=102	=102	=102	=102	=102	=102	=102	=102	=102	=102	=102	=102	=102	=102
!	!	!	!	!	!	!	!	!	!	!	!	!	!	!	!LO:TX:a:t=P:problem=takt zapisany repetycją	!	!	!	!	!	!	!	!	!LO:TX:a:t=P:problem=takt zapisany repetycją	!
(8G\L	.	.	16c/LL	.	(8b-/L	.	(8G\L	.	.	4.c\	no-	4.c/	no-	.	(8b-\	.	.	4.C/	.	4.c/	.	(8gg\L	.	(8bb-\L	.
.	.	.	16c/	.	.	.	.	.	.	.	.	.	.	.	.	.	.	.	.	.	.	.	.	.	.
8E\)	.	.	16c/	.	8g/)	.	8E\J)	.	.	.	.	.	.	.	8g\)	.	.	.	.	.	.	8ee\)	.	8gg\)	.
.	.	.	16c/	.	.	.	.	.	.	.	.	.	.	.	.	.	.	.	.	.	.	.	.	.	.
8F`\J	.	.	16c/	.	8a`/J	.	8F\	.	.	.	.	.	.	.	8a\	.	.	.	.	.	.	8ff`\J	.	8aa\J	.
.	.	.	16c/JJ	.	.	.	.	.	.	.	.	.	.	.	.	.	.	.	.	.	.	.	.	.	.
*	*	*	*Xtremolo	*	*	*	*	*	*	*	*	*	*	*	*	*	*	*	*	*	*	*	*	*	*
!LO:LB:g=original	!	!	!	!	!	!	!	!	!	!	!	!	!	!	!	!	!	!	!	!	!	!	!	!	!
=103	=103	=103	=103	=103	=103	=103	=103	=103	=103	=103	=103	=103	=103	=103	=103	=103	=103	=103	=103	=103	=103	=103	=103	=103	=103
8G\	3	.	8c/	.	8b-/	.	8G\	-bis	.	4c\	-bis	4c/	-bis	.	8b-\	-ne	.	8C/	.	8c/	.	8gg\	.	8bb-\	.
8r	.	.	8r	.	8r	.	8r	.	.	.	.	.	.	.	8r	.	.	8r	.	8r	.	8r	.	8r	.
8r	.	.	8r	.	8r	.	8r	.	.	8r	.	8r	.	.	8r	.	.	8r	.	8r	.	8r	.	8r	.
!	!	!	!	!	!	!	!	!	!	!LO:LB:g=original	!	!	!	!	!	!	!	!	!	!	!	!	!	!	!
=104	=104	=104	=104	=104	=104	=104	=104	=104	=104	=104	=104	=104	=104	=104	=104	=104	=104	=104	=104	=104	=104	=104	=104	=104	=104
!	!	!	!	!	!	!	!	!	!	!	!	!	!	!	!	!	!	!	!	!	!	!LO:TX:a:t=6	!	!LO:TX:a:t=6	!
!	!	!	!	!	!	!	!	!	!	!	!	!	!	!	!	!	!	!LO:N:vis=00	!	!LO:N:vis=00	!	!LO:N:vis=00	!	!LO:N:vis=00	!
4AA/	.	.	4f/	.	16ff\LL	p	4.r	.	.	4.r	.	(16f\LL	Pa-	.	16ff\LL	Pa-	.	1.r	.	1.r	.	1.r	.	1.r	.
!	!	!	!	!	!LO:TX:b:t=dolce	!	!	!	!	!	!	!	!	!	!	!	!	!	!	!	!	!	!	!	!
.	.	.	.	.	(16ee\	.	.	.	.	.	.	16e\	.	.	16ee\	.	.	.	.	.	.	.	.	.	.
.	.	.	.	.	16ff\	.	.	.	.	.	.	16f\	.	.	16ff\	.	.	.	.	.	.	.	.	.	.
.	.	.	.	.	16gg\)	.	.	.	.	.	.	16g\	.	.	16gg\	.	.	.	.	.	.	.	.	.	.
8r	.	.	8r	.	16aa\	.	.	.	.	.	.	16a\	.	.	16aa\	.	.	.	.	.	.	.	.	.	.
.	.	.	.	.	16ff\JJ	.	.	.	.	.	.	16f\JJ)	.	.	16ff\JJ	.	.	.	.	.	.	.	.	.	.
!	!	!	!	!	!	!	!LO:LB:g=original	!	!	!	!	!	!	!	!	!	!	!	!	!	!	!	!	!	!
=105	=105	=105	=105	=105	=105	=105	=105	=105	=105	=105	=105	=105	=105	=105	=105	=105	=105	=105	=105	=105	=105	=105	=105	=105	=105
16BB-/LL	.	.	4d/	.	16dd\LL	.	16D\LL	o-	.	16d\LL	o-	(16d\LL	.	.	16dd\LL	.	.	.	.	.	.	.	.	.	.
(16AA/	.	.	.	.	(16cc#X\	.	(16C#X\	.	.	(16c#X\	.	16c#X\	.	.	16cc#X\	.	.	.	.	.	.	.	.	.	.
16BB-/	.	.	.	.	16dd\	.	16D\	.	.	16d\)	.	16d\	.	.	16dd\	.	.	.	.	.	.	.	.	.	.
16C/)	.	.	.	.	16ee\)	.	16E\)	.	.	16e\	.	16e\	.	.	16ee\	.	.	.	.	.	.	.	.	.	.
16D/	.	.	8c/	.	16ff\	.	16F\	.	.	16f\	.	16f\	.	.	16ff\	.	.	.	.	.	.	.	.	.	.
16C/JJ	.	.	.	.	16ff#X\JJ	.	16F#X\JJ	.	.	16f#X\JJ	.	16f#X\JJ)	.	.	16ff#X\JJ	.	.	.	.	.	.	.	.	.	.
=106	=106	=106	=106	=106	=106	=106	=106	=106	=106	=106	=106	=106	=106	=106	=106	=106	=106	=106	=106	=106	=106	=106	=106	=106	=106
4BB-/	.	.	4B-/	.	16gg\LL	.	4G\	-ra	.	4g\	-ra	(16g\LL	.	.	16gg\LL	.	.	.	.	.	.	.	.	.	.
.	.	.	.	.	(16ff\	.	.	.	.	.	.	16f#X\	.	.	16ff#X\	.	.	.	.	.	.	.	.	.	.
.	.	.	.	.	16gg\	.	.	.	.	.	.	16g\	.	.	16gg\	.	.	.	.	.	.	.	.	.	.
.	.	.	.	.	16aa\)	.	.	.	.	.	.	16a\	.	.	16aa\	.	.	.	.	.	.	.	.	.	.
8r	.	.	8r	.	16bb-\	.	8r	.	.	8r	.	16b-\)	.	.	16bb-\	.	.	.	.	.	.	.	.	.	.
.	.	.	.	.	16gg\JJ	.	.	.	.	.	.	16g\JJ	.	.	16gg\JJ	.	.	.	.	.	.	.	.	.	.
!	!	!	!	!	!	!	!	!	!	!	!	!	!	!	!LO:LB:g=original	!	!	!	!	!	!	!	!	!	!
=107	=107	=107	=107	=107	=107	=107	=107	=107	=107	=107	=107	=107	=107	=107	=107	=107	=107	=107	=107	=107	=107	=107	=107	=107	=107
.	.	.	.	.	.	.	.	.	.	.	.	8qqf/	.	.	8qqff/	.	.	.	.	.	.	.	.	.	.
!	!	!	!	!	!	!	!LO:N:vis=1	!	!	!	!	!	!	!	!	!	!	!	!	!	!	!	!	!	!
16c\LL	.	.	4g 4c/	.	4ee\	.	4.r	.	.	8r	.	4e\	.	.	4ee\	.	.	.	.	.	.	.	.	.	.
16d\	.	.	.	.	.	.	.	.	.	.	.	.	.	.	.	.	.	.	.	.	.	.	.	.	.
(16c\	.	.	.	.	.	.	.	.	.	8r	.	.	.	.	.	.	.	.	.	.	.	.	.	.	.
16B-\)	.	.	.	.	.	.	.	.	.	.	.	.	.	.	.	.	.	.	.	.	.	.	.	.	.
16A\	.	.	8r	.	(16ff\LL	.	.	.	.	16f\LL	pro	16f\LL	.	.	16ff\LL	.	.	.	.	.	.	.	.	.	.
16G\JJ	.	.	.	.	16gg\JJ)	.	.	.	.	16g\JJ	.	16g\JJ	.	.	16gg\JJ	.	.	.	.	.	.	.	.	.	.
=108	=108	=108	=108	=108	=108	=108	=108	=108	=108	=108	=108	=108	=108	=108	=108	=108	=108	=108	=108	=108	=108	=108	=108	=108	=108
!	!	!	!	!	!	!	!	!	!	!	!	!	!	!	!	!	!	!	!	!	!	!LO:N:vis=0	!	!LO:N:vis=0	!
4F\	.	.	(16ff\LL	.	16aa\LL	.	8r	.	.	16a\LL	.	16a\LL	.	.	16aa\LL	.	.	4.F/	.	4.f\	.	2.r	.	2.r	.
.	.	.	16ee\	.	(16gg\	.	.	.	.	16g\	.	(16g\	.	.	16gg\	.	.	.	.	.	.	.	.	.	.
.	.	.	16dd\	.	16ff\	.	8r	.	.	16f\	.	16f\	.	.	16ff\	.	.	.	.	.	.	.	.	.	.
.	.	.	16cc\	.	16ee\	.	.	.	.	(16e\	.	16e\	.	.	16ee\	.	.	.	.	.	.	.	.	.	.
8AA/	.	.	16b-\	.	16dd\)	.	16B-\LL	o-	.	16d\)	.	16d\)	.	.	16dd\	.	.	.	.	.	.	.	.	.	.
.	.	.	16a\JJ)	.	16cc#X\JJ	.	16c#X\JJ	.	.	16c#X\JJ	.	16c#X\JJ	.	.	16cc#X\JJ	.	.	.	.	.	.	.	.	.	.
=109	=109	=109	=109	=109	=109	=109	=109	=109	=109	=109	=109	=109	=109	=109	=109	=109	=109	=109	=109	=109	=109	=109	=109	=109	=109
!	!	!LO:DY:rj:t=for	!	!LO:DY:rj	!	!LO:DY:rj:t=f	!	!	!	!	!	!	!	!	!	!	!	!	!	!	!	!	!	!	!
8BB-/L	.	f	(16b-\LL	f	16dd\LL	f	16d\LL	.	.	16d\LL	.	16d\LL	.	.	16dd\LL	.	.	4F/	.	4f\	.	.	.	.	.
.	.	.	16cc\	.	(16ee\	.	16e\	.	.	16e\	.	(16e\	.	.	16ee\	.	.	.	.	.	.	.	.	.	.
8BB-/	.	.	16dd\	.	16ff\	.	16f\	.	.	(16f\	.	16f\	.	.	16ff\	.	.	.	.	.	.	.	.	.	.
.	.	.	16b-\JJ	.	16dd\	.	16d\	.	.	16d\	.	16d\	.	.	16dd\	.	.	.	.	.	.	.	.	.	.
8BB-/J	.	.	16a\LL)	p	16cc\)	.	16c\	.	.	16c\)	.	16c\)	.	.	16cc\	.	.	8r	.	8r	.	.	.	.	.
.	.	.	16g\JJ	.	16b-\JJ	.	16B-\JJ	.	.	16B-\JJ	.	16B-\JJ	.	.	16b-\JJ	.	.	.	.	.	.	.	.	.	.
!LO:LB:g=original	!	!	!	!	!LO:LB:g=original	!	!	!	!	!	!	!	!	!	!	!	!	!	!	!	!	!	!	!	!
=110	=110	=110	=110	=110	=110	=110	=110	=110	=110	=110	=110	=110	=110	=110	=110	=110	=110	=110	=110	=110	=110	=110	=110	=110	=110
.	.	.	.	.	.	.	.	.	.	.	.	8qqA/	.	.	.	.	.	.	.	.	.	.	.	.	.
!	!	!	!	!	!	!	!	!	!	!	!	!	!	!	!	!	!	!LO:N:vis=1	!	!LO:N:vis=1	!	!	!	!	!
8C/L	.	p	16.f/LL	.	16.a/LL	p	4.A\	-ra	.	4.A\	.	4a\	.	.	4.a\	-tro-	.	4.r	.	4.r	.	4.ff\	.	4.aa\	.
.	.	.	32g/K	.	32b-/K	.	.	.	.	.	.	.	.	.	.	.	.	.	.	.	.	.	.	.	.
8D/	.	.	16.f/	.	16.a/	.	.	.	.	.	.	.	.	.	.	.	.	.	.	.	.	.	.	.	.
.	.	.	32g/K	.	32b-/K	.	.	.	.	.	.	.	.	.	.	.	.	.	.	.	.	.	.	.	.
8BBn/J	.	.	16.f/	.	16.a/	.	.	.	.	.	.	8a\	.	.	.	.	.	.	.	.	.	.	.	.	.
.	.	.	32g/JJk	.	32b-/JJk	.	.	.	.	.	.	.	.	.	.	.	.	.	.	.	.	.	.	.	.
!	!	!	!LO:LB:g=original	!	!	!	!	!	!	!LO:LB:g=original	!	!	!	!	!	!	!	!LO:LB:g=original	!	!	!	!	!	!	!
=111	=111	=111	=111	=111	=111	=111	=111	=111	=111	=111	=111	=111	=111	=111	=111	=111	=111	=111	=111	=111	=111	=111	=111	=111	=111
8C/L	.	.	8f/L	.	8a/L	.	8A\L	o-	.	8A\L	.	8a\L	-tro-	.	8a\L	-ne	.	8f\L	.	8a\L	.	8ff\	.	8aa\L	.
8C/	.	.	(16a/L	.	16cc/L	.	16c\L	.	.	16c\L	.	(16cc\L	.	.	(16cc\L	.	.	16a\L	.	16cc\L	.	16aa\LL	.	16ccc\L	.
.	.	.	16g/	.	(16b-/	.	(16B-\	.	.	16B-\	.	16b-\	.	.	16b-\	.	.	(16g\	.	(16b-\	.	(16gg\	.	(16bb-\	.
8C/J	.	.	16f/	.	16a/	.	16A\)	.	.	(16A\	no-	16a\	.	.	16a\	.	.	16f\)	.	16a\	.	16ff\)	.	16aa\)	.
.	.	.	16e/JJ)	.	16g/JJ)	.	16G\JJ	.	.	16G\JJ)	.	16g\JJ)	.	.	16g\JJ)	.	.	16c\JJ	.	16g\JJ)	.	16ee\JJ	.	16gg\JJ	.
!	!	!	!	!	!	!	!	!	!	!	!	!LO:LB:g=original	!	!	!	!	!	!	!	!LO:LB:g=original	!	!	!	!	!
=112	=112	=112	=112	=112	=112	=112	=112	=112	=112	=112	=112	=112	=112	=112	=112	=112	=112	=112	=112	=112	=112	=112	=112	=112	=112
4F\	.	.	4f/	.	8f/	.	4F\	-ra	.	4F/	-biſ	4f\	-ne	.	4f\	.	.	4A/	.	4f\	.	4ff\	.	4ff\	.
.	.	.	.	.	8r	.	.	.	.	.	.	.	.	.	.	.	.	.	.	.	.	.	.	.	.
8r	.	.	8r	.	8r	.	8r	.	.	8r	.	8r	.	.	8r	.	.	8r	.	8r	.	8r	.	8r	.
!	!	!	!	!	!	!	!LO:LB:g=original	!	!	!	!	!	!	!	!	!	!	!	!	!	!	!	!	!	!
=113	=113	=113	=113	=113	=113	=113	=113	=113	=113	=113	=113	=113	=113	=113	=113	=113	=113	=113	=113	=113	=113	=113	=113	=113	=113
!LO:TX:a:t=1	!	!	!LO:TX:a:t=1	!	!	!	!	!	!	!	!	!	!	!	!	!	!	!	!	!	!	!LO:TX:a:t=6	!	!LO:TX:a:t=6	!
!	!	!	!	!	!	!	!	!	!	!	!	!	!	!	!	!	!	!LO:N:vis=00	!	!LO:N:vis=00	!	!LO:N:vis=00	!	!LO:N:vis=00	!
4.r	.	.	4.r	.	16ff\LL	p	4.r	.	.	4.r	.	16f\LL	Pa-	.	16ff\LL	.	.	1.r	.	1.r	.	1.r	.	1.r	.
.	.	.	.	.	(16ee\	.	.	.	.	.	.	16e\	.	.	16ee\	.	.	.	.	.	.	.	.	.	.
.	.	.	.	.	16ff\	.	.	.	.	.	.	16f\	.	.	16ff\	.	.	.	.	.	.	.	.	.	.
.	.	.	.	.	16gg\)	.	.	.	.	.	.	16g\	.	.	16gg\	.	.	.	.	.	.	.	.	.	.
.	.	.	.	.	16aa\	.	.	.	.	.	.	16a\	.	.	16aa\	.	.	.	.	.	.	.	.	.	.
.	.	.	.	.	16ff\JJ	.	.	.	.	.	.	16f\JJ	.	.	16ff\JJ	.	.	.	.	.	.	.	.	.	.
=114	=114	=114	=114	=114	=114	=114	=114	=114	=114	=114	=114	=114	=114	=114	=114	=114	=114	=114	=114	=114	=114	=114	=114	=114	=114
!	!	!LO:DY:rj	!	!	!	!	!	!	!	!	!	!	!	!	!	!	!	!	!	!	!	!	!	!	!
16BB-/LL	.	p	4d/	.	16dd\LL	.	16D\LL	.	.	16d\LL	o-	16d\LL	.	.	16dd\LL	.	.	.	.	.	.	.	.	.	.
16AA/	.	.	.	.	(16cc#X\	.	(16C#X\	.	.	16c#X\	.	16c#X\	.	.	16cc#X\	.	.	.	.	.	.	.	.	.	.
(16BB-/	.	.	.	.	16dd\	.	16D\	.	.	(16d\	.	16d\	.	.	16dd\	.	.	.	.	.	.	.	.	.	.
16C/)	.	.	.	.	16ee\	.	16E\)	.	.	16e\	.	16e\	.	.	16ee\	.	.	.	.	.	.	.	.	.	.
16D/	.	.	8c/	.	16ff\)	.	16F\	.	.	16f\)	.	16f\	.	.	16ff\	.	.	.	.	.	.	.	.	.	.
16C/JJ	.	.	.	.	16ff#X\JJ	.	16F#X\JJ	o-	.	16f#X\JJ	.	16f#X\JJ	.	.	16ff#X\JJ	.	.	.	.	.	.	.	.	.	.
!	!	!	!	!	!	!	!	!	!	!	!	!	!	!	!LO:LB:g=original	!	!	!	!	!	!	!	!	!	!
=115	=115	=115	=115	=115	=115	=115	=115	=115	=115	=115	=115	=115	=115	=115	=115	=115	=115	=115	=115	=115	=115	=115	=115	=115	=115
4BB-/	.	.	4B-/	.	(16gg\LL	.	4G\	-ra	.	4g\	-ra	16g\LL	.	.	16gg\LL	.	.	.	.	.	.	.	.	.	.
.	.	.	.	.	16ff\	.	.	.	.	.	.	16f#X\	.	.	16ff\	.	.	.	.	.	.	.	.	.	.
.	.	.	.	.	16gg\)	.	.	.	.	.	.	16g\	.	.	16gg\	.	.	.	.	.	.	.	.	.	.
.	.	.	.	.	16aa\	.	.	.	.	.	.	16a\	.	.	16aa\	.	.	.	.	.	.	.	.	.	.
8r	.	.	8r	.	16bb-\	.	8r	.	.	8r	.	16b-\	.	.	16bb-\	.	.	.	.	.	.	.	.	.	.
.	.	.	.	.	16gg\JJ	.	.	.	.	.	.	16g\JJ	.	.	16gg\JJ	.	.	.	.	.	.	.	.	.	.
=116	=116	=116	=116	=116	=116	=116	=116	=116	=116	=116	=116	=116	=116	=116	=116	=116	=116	=116	=116	=116	=116	=116	=116	=116	=116
.	.	.	.	.	.	.	.	.	.	.	.	4qqf/	.	.	8qqff/	.	.	.	.	.	.	.	.	.	.
!	!	!	!	!	!	!	!LO:N:vis=1	!	!	!	!	!	!	!	!	!	!	!	!	!	!	!	!	!	!
16c\LL	.	.	4g/	.	4ee\	.	4.r	.	.	8r	.	4e\	.	.	4ee\	.	.	.	.	.	.	.	.	.	.
16d\	.	.	.	.	.	.	.	.	.	.	.	.	.	.	.	.	.	.	.	.	.	.	.	.	.
(16c\	.	.	.	.	.	.	.	.	.	8r	.	.	.	.	.	.	.	.	.	.	.	.	.	.	.
16B-\	.	.	.	.	.	.	.	.	.	.	.	.	.	.	.	.	.	.	.	.	.	.	.	.	.
16A\)	.	.	8r	.	(16ff\LL	.	.	.	.	(16f\LL	pro	16f\LL	.	.	16ff\LL	.	.	.	.	.	.	.	.	.	.
16G\JJ	.	.	.	.	16gg\JJ)	.	.	.	.	16g\JJ)	.	16g\JJ	.	.	16gg\JJ	.	.	.	.	.	.	.	.	.	.
=117	=117	=117	=117	=117	=117	=117	=117	=117	=117	=117	=117	=117	=117	=117	=117	=117	=117	=117	=117	=117	=117	=117	=117	=117	=117
!	!	!	!	!	!	!	!	!	!	!	!	!	!	!	!	!	!	!	!	!	!	!LO:N:vis=0	!	!LO:N:vis=0	!
4F\	.	.	(16ff\LL	.	16aa\LL	.	8r	.	.	16a\LL	.	16a\LL	.	.	16aa\LL	Sin-	.	4.F/	.	4.f\	.	2.r	.	2.r	.
.	.	.	16ee\	.	16gg\	.	.	.	.	16g\	.	(16g\	.	.	16gg\	.	.	.	.	.	.	.	.	.	.
.	.	.	16dd\	.	(16ff\	.	8r	.	.	16f\	.	16f\	.	.	16ff\	.	.	.	.	.	.	.	.	.	.
.	.	.	16cc\)	.	16ee\	.	.	.	.	(16e\	.	16e\)	.	.	16ee\	.	.	.	.	.	.	.	.	.	.
8AA/	.	.	(16b-\	.	16dd#X\)	.	16B-\LL	o-	.	16d\)	.	16d\	.	.	16dd\	.	.	.	.	.	.	.	.	.	.
.	.	.	16a\JJ)	.	16cc#X\JJ	.	16c#X\JJ	.	.	16c#X\JJ	.	16c#X\JJ	.	.	16cc#X\JJ	.	.	.	.	.	.	.	.	.	.
!LO:LB:g=original	!	!	!	!	!LO:LB:g=original	!	!	!	!	!	!	!	!	!	!	!	!	!	!	!	!	!	!	!	!
=118	=118	=118	=118	=118	=118	=118	=118	=118	=118	=118	=118	=118	=118	=118	=118	=118	=118	=118	=118	=118	=118	=118	=118	=118	=118
!	!	!LO:DY:t=for	!	!LO:DY:t=fo	!	!LO:DY:rj	!	!	!	!	!	!	!	!	!	!	!	!	!	!	!	!	!	!	!
4.BB-/	.	f	(16b-\LL	f	16dd\LL	f	16d\LL	-ra	.	16d\LL	.	16d\LL	.	.	16dd\LL	.	.	4F/	.	4f\	.	.	.	.	.
.	.	.	16cc\	.	(16ee\	.	16e\	.	.	16e\	.	(16e\	.	.	16ee\	.	.	.	.	.	.	.	.	.	.
.	.	.	16dd\)	p	16ff\	.	16f\	.	.	16f\	.	16f\	.	.	16ff\	.	.	.	.	.	.	.	.	.	.
.	.	.	16b-\JJ	.	16dd\)	.	16d\	.	.	16d\	.	16d\)	.	.	16dd\	.	.	.	.	.	.	.	.	.	.
.	.	.	(16a\LL	.	16cc\	.	(16c\	.	.	16c\	.	16c\	.	.	16cc\	.	.	8r	.	8r	.	.	.	.	.
.	.	.	16g\JJ)	.	16b-\JJ	.	16B-\JJ)	.	.	16B-\JJ	.	16B-\JJ	.	.	16b-\JJ	.	.	.	.	.	.	.	.	.	.
!	!	!	!	!	!	!	!LO:PB:g=original	!	!	!LO:LB:g=original	!	!	!	!	!	!	!	!	!	!	!	!	!	!	!
=119	=119	=119	=119	=119	=119	=119	=119	=119	=119	=119	=119	=119	=119	=119	=119	=119	=119	=119	=119	=119	=119	=119	=119	=119	=119
.	.	.	.	.	.	.	.	.	.	.	.	8qqA/	.	.	.	.	.	.	.	.	.	.	.	.	.
!	!	!LO:DY:rj	!	!	!	!	!	!	!	!	!	!	!	!	!	!	!	!LO:N:vis=1	!	!LO:N:vis=1	!	!	!	!	!
8C/L	.	p	16.f/LL	.	16.a/LL	p	4.A\	.	.	4.A\	.	4.a\	.	.	4.a\	-gu-	.	4.r	.	4.r	.	4.ff\	.	4.aa\	.
.	.	.	32g/K	.	32b-/K	.	.	.	.	.	.	.	.	.	.	.	.	.	.	.	.	.	.	.	.
8C/	.	.	16.f/	.	16.a/	.	.	.	.	.	.	.	.	.	.	.	.	.	.	.	.	.	.	.	.
.	.	.	32g/K	.	32b-/K	.	.	.	.	.	.	.	.	.	.	.	.	.	.	.	.	.	.	.	.
8C/J	.	.	16.f/	.	16.a/	.	.	.	.	.	.	.	.	.	.	.	.	.	.	.	.	.	.	.	.
.	.	.	32g/JJk	.	32b-/JJk	.	.	.	.	.	.	.	.	.	.	.	.	.	.	.	.	.	.	.	.
!	!	!	!	!	!	!	!	!	!	!	!	!	!	!	!	!	!	!	!	!	!	!LO:LB:g=original	!	!	!
=120	=120	=120	=120	=120	=120	=120	=120	=120	=120	=120	=120	=120	=120	=120	=120	=120	=120	=120	=120	=120	=120	=120	=120	=120	=120
*	*	*	*	*	*	*	*	*ij	*	*	*	*	*	*	*	*	*	*	*	*	*	*	*	*	*
8F\	.	.	8f/L	.	8a/L	.	8A\L	o-	.	8A\L	.	8a\L	-tro-	.	8a\L	-la-	.	8f\L	.	8a\L	.	8ff\L	.	8aa\L	.
8r	.	.	(16a/L	.	16cc/L	.	16c\L	.	.	16c\L	.	(16cc\L	.	.	16cc\L	.	.	16a\L	.	16cc\L	.	16aa\L	.	16ccc\L	.
.	.	.	16g/	.	(16b-/	.	(16B-\	.	.	16B-\	.	16b-\	.	.	16b-\	.	.	(16g\	.	16b-\	.	(16gg\	.	(16bb-\	.
8r	.	.	16f/	.	16a/	.	16A\)	.	.	(16A\	no-	16a\)	.	.	16a\	.	.	16f\)	.	16a\	.	16ff\	.	16aa\)	.
.	.	.	16e/JJ)	.	16g/JJ)	.	16G\JJ	.	.	16G\JJ)	.	16g\JJ	.	.	16g\JJ	.	.	16c\JJ	.	16g\JJ	.	16ee\JJ)	.	16gg\JJ	.
!	!	!	!LO:LB:g=original	!	!	!	!	!	!	!	!	!LO:LB:g=original	!	!	!	!	!	!	!	!	!	!	!	!LO:LB:g=original	!
=121	=121	=121	=121	=121	=121	=121	=121	=121	=121	=121	=121	=121	=121	=121	=121	=121	=121	=121	=121	=121	=121	=121	=121	=121	=121
4c\	.	.	(16f\LL	.	4f/	.	4F\	-ra	.	4F/	-biſ	4f\	-ne	.	4f\	-ris	.	4A/	.	4f\	.	4ff\	.	4ff\	.
.	.	.	16cc\)	.	.	.	.	.	.	.	.	.	.	.	.	.	.	.	.	.	.	.	.	.	.
.	.	.	(16a\	.	.	.	.	.	.	.	.	.	.	.	.	.	.	.	.	.	.	.	.	.	.
.	.	.	16cc\)	.	.	.	.	.	.	.	.	.	.	.	.	.	.	.	.	.	.	.	.	.	.
!	!	!	!	!	!LO:TX:b:t=dolce	!	!	!	!	!	!	!	!	!	!	!	!	!	!	!	!	!	!	!	!
8C/	.	.	(16a\	.	(16aa\LL	.	8r	.	.	8r	.	8r	.	.	8r	.	.	8r	.	8r	.	8r	.	8r	.
.	.	.	16cc\JJ)	.	16ccc\JJ)	.	.	.	.	.	.	.	.	.	.	.	.	.	.	.	.	.	.	.	.
=122	=122	=122	=122	=122	=122	=122	=122	=122	=122	=122	=122	=122	=122	=122	=122	=122	=122	=122	=122	=122	=122	=122	=122	=122	=122
!	!	!	!	!	!	!	!	!	!	!	!	!	!	!LO:DY:rj:t=p	!LO:SIC:l:s=o-:v	!	!	!	!LO:DY:rj	!	!	!	!LO:DY:rj	!	!
4F\	.	.	(16b-\LL	.	16ccc\LL	.	4.E\	o-	.	4.c\	pro	4.g\	o-	p	4.b-\	a-	p	4.c/	p	4.c/	.	4.gg\	p	4.bb-\	p
*	*	*	*	*	*	*	*	*Xij	*	*	*	*	*	*	*	*	*	*	*	*	*	*	*	*	*
.	.	.	16cc\)	.	16bb-\	.	.	.	.	.	.	.	.	.	.	.	.	.	.	.	.	.	.	.	.
.	.	.	(16b-\	.	(16aa\	.	.	.	.	.	.	.	.	.	.	.	.	.	.	.	.	.	.	.	.
.	.	.	16cc\)	.	16gg\	.	.	.	.	.	.	.	.	.	.	.	.	.	.	.	.	.	.	.	.
8r	.	.	(16b-\	.	16ff\)	.	.	.	.	.	.	.	.	.	.	.	.	.	.	.	.	.	.	.	.
.	.	.	16cc\JJ)	.	16ee\JJ	.	.	.	.	.	.	.	.	.	.	.	.	.	.	.	.	.	.	.	.
=123	=123	=123	=123	=123	=123	=123	=123	=123	=123	=123	=123	=123	=123	=123	=123	=123	=123	=123	=123	=123	=123	=123	=123	=123	=123
4c\	.	.	(16a\LL	.	4ff\	.	4F\	-ra	.	4.c\	no-	4f\	-ra	.	4a\	-ra	.	4c/	.	4c/	.	8ff\	.	8aa\	.
.	.	.	16cc\)	.	.	.	.	.	.	.	.	.	.	.	.	.	.	.	.	.	.	.	.	.	.
.	.	.	(16a\	.	.	.	.	.	.	.	.	.	.	.	.	.	.	.	.	.	.	8r	.	8r	.
.	.	.	16cc\)	.	.	.	.	.	.	.	.	.	.	.	.	.	.	.	.	.	.	.	.	.	.
8C/	.	.	(16a\	.	(16aa\LL	.	8r	.	.	.	.	8r	.	.	8r	.	.	8r	.	8r	.	8r	.	8r	.
!	!	!	!	!	!	!	!	!	!	!	!	!	!	!	!LO:TX:b:i:t=Volti Subito	!	!	!	!	!	!	!	!	!	!
.	.	.	16cc\JJ)	.	16ccc\JJ)	.	.	.	.	.	.	.	.	.	.	.	.	.	.	.	.	.	.	.	.
!	!	!	!	!	!	!	!	!	!	!	!	!	!	!	!LO:PB:g=original	!	!	!	!	!	!	!	!	!	!
=124	=124	=124	=124	=124	=124	=124	=124	=124	=124	=124	=124	=124	=124	=124	=124	=124	=124	=124	=124	=124	=124	=124	=124	=124	=124
!LO:TX:a:t=P:problem=brak taktu 124	!	!	!	!	!	!	!	!	!	!	!	!	!	!	!	!	!	!	!	!LO:N:vis=4.	!	!	!	!	!
4.ryy	.	.	(16b-\LL	.	16ccc\LL	.	8E\	pro	.	4.c\	.	8g\	pro	.	8b-\	pro-	.	4.c/	.	4c/	.	4.gg\	.	4.bb-\	.
.	.	.	16cc\)	.	(16bb-\	.	.	.	.	.	.	.	.	.	.	.	.	.	.	.	.	.	.	.	.
!	!	!	!	!	!	!	!	!	!	!	!	!	!	!	!LO:SIC:l:s=-no-:v	!	!	!	!	!	!	!	!	!	!
.	.	.	(16b-\	.	16aa\	.	4E\	no-	.	.	.	4g\	no-	.	4b-\	.	.	.	.	.	.	.	.	.	.
.	.	.	16cc\)	.	16gg\)	.	.	.	.	.	.	.	.	.	.	.	.	.	.	.	.	.	.	.	.
.	.	.	(16b-\	.	16ff\	.	.	.	.	.	.	.	.	.	.	.	.	.	.	8r	.	.	.	.	.
.	.	.	16cc\JJ)	.	16ee\JJ	.	.	.	.	.	.	.	.	.	.	.	.	.	.	.	.	.	.	.	.
=125	=125	=125	=125	=125	=125	=125	=125	=125	=125	=125	=125	=125	=125	=125	=125	=125	=125	=125	=125	=125	=125	=125	=125	=125	=125
!	!	!LO:DY:t=for	!	!LO:DY:rj:t=fo:	!	!LO:DY:t=f:	!	!	!	!	!	!	!	!	!	!	!	!	!	!	!	!	!	!	!
16F\LL	.	f	(16a\LL	f	16ff\LL	f	4F\	-bis	.	4c\	-biſ	4f\	-biſ	.	4a\	-bis	.	4c/	.	4c/	.	8ff\	.	8aa\	.
16G\	.	.	16g\	.	(16gg\	.	.	.	.	.	.	.	.	.	.	.	.	.	.	.	.	.	.	.	.
(16A\	.	.	16a\	.	16aa\	.	.	.	.	.	.	.	.	.	.	.	.	.	.	.	.	8r	.	8r	.
16B-\	.	.	16b-\)	.	16bb-\	.	.	.	.	.	.	.	.	.	.	.	.	.	.	.	.	.	.	.	.
16c\)	.	.	16cc\	.	16ccc\)	.	8r	.	.	8r	.	8ryy	.	.	8r	.	.	8r	.	8r	.	8r	.	8r	.
16B-\JJ	.	.	16b-\JJ	.	16bb-\JJ	.	.	.	.	.	.	.	.	.	.	.	.	.	.	.	.	.	.	.	.
=126	=126	=126	=126	=126	=126	=126	=126	=126	=126	=126	=126	=126	=126	=126	=126	=126	=126	=126	=126	=126	=126	=126	=126	=126	=126
!	!	!	!	!	!	!	!LO:TX:a:t=5	!	!	!LO:TX:a:t=5	!	!	!	!	!	!	!	!LO:TX:a:t=5	!	!	!	!	!	!	!
!	!	!	!	!	!	!	!LO:N:vis=00	!	!	!LO:N:vis=00	!	!LO:N:vis=00	!	!	!LO:N:vis=00	!	!	!LO:N:vis=00	!	!LO:N:vis=00	!	!LO:N:vis=00	!	!LO:N:vis=00	!
16A\LL	.	.	(16a/LL	.	16aa\LL	.	1.r	.	.	1.r	.	1.r	.	.	1.r	.	.	1.r	.	1.r	.	1.r	.	1.r	.
(16G\	.	.	16g/	.	(16gg\	.	.	.	.	.	.	.	.	.	.	.	.	.	.	.	.	.	.	.	.
16F\	.	.	16f/	.	16ff\	.	.	.	.	.	.	.	.	.	.	.	.	.	.	.	.	.	.	.	.
16E\	.	.	16e/)	.	16ee\JJ)	.	.	.	.	.	.	.	.	.	.	.	.	.	.	.	.	.	.	.	.
!	!	!	!	!	!LO:LB:g=original	!	!	!	!	!	!	!	!	!	!	!	!	!	!	!	!	!	!	!	!
16D\)	.	.	16d/	.	16dd\LL	.	.	.	.	.	.	.	.	.	.	.	.	.	.	.	.	.	.	.	.
16C#X\JJ	.	.	16c#X/JJ	.	16cc#X\JJ	.	.	.	.	.	.	.	.	.	.	.	.	.	.	.	.	.	.	.	.
!LO:LB:g=original	!	!	!	!	!	!	!	!	!	!	!	!	!	!	!	!	!	!	!	!	!	!	!	!	!
=127	=127	=127	=127	=127	=127	=127	=127	=127	=127	=127	=127	=127	=127	=127	=127	=127	=127	=127	=127	=127	=127	=127	=127	=127	=127
16D\LL	.	.	(16d/LL	.	16dd\LL	.	.	.	.	.	.	.	.	.	.	.	.	.	.	.	.	.	.	.	.
(16E\	.	.	16e/	.	(16ee\	.	.	.	.	.	.	.	.	.	.	.	.	.	.	.	.	.	.	.	.
16F\	.	.	16f/	.	16ff\	.	.	.	.	.	.	.	.	.	.	.	.	.	.	.	.	.	.	.	.
16G\)	.	.	16g/JJ)	.	16gg\)	.	.	.	.	.	.	.	.	.	.	.	.	.	.	.	.	.	.	.	.
16A\	.	.	16a/LL	.	16aa\	.	.	.	.	.	.	.	.	.	.	.	.	.	.	.	.	.	.	.	.
16G\JJ	.	.	16g/JJ	.	16gg\JJ	.	.	.	.	.	.	.	.	.	.	.	.	.	.	.	.	.	.	.	.
!	!	!	!LO:LB:g=original	!	!	!	!	!	!	!	!	!	!	!	!	!	!	!	!	!	!	!	!	!	!
=128	=128	=128	=128	=128	=128	=128	=128	=128	=128	=128	=128	=128	=128	=128	=128	=128	=128	=128	=128	=128	=128	=128	=128	=128	=128
16F\LL	.	.	(16f/LL	.	16ff\LL	.	.	.	.	.	.	.	.	.	.	.	.	.	.	.	.	.	.	.	.
(16E\	.	.	16en/)	.	(16ee\	.	.	.	.	.	.	.	.	.	.	.	.	.	.	.	.	.	.	.	.
16D\	.	.	(16d/	.	16dd\	.	.	.	.	.	.	.	.	.	.	.	.	.	.	.	.	.	.	.	.
16C\	.	.	16c/	.	16cc\	.	.	.	.	.	.	.	.	.	.	.	.	.	.	.	.	.	.	.	.
16BBn\)	.	.	16Bn/)	.	16bn\)	.	.	.	.	.	.	.	.	.	.	.	.	.	.	.	.	.	.	.	.
16AA\JJ	.	.	16A/JJ	.	16a\JJ	.	.	.	.	.	.	.	.	.	.	.	.	.	.	.	.	.	.	.	.
=129	=129	=129	=129	=129	=129	=129	=129	=129	=129	=129	=129	=129	=129	=129	=129	=129	=129	=129	=129	=129	=129	=129	=129	=129	=129
!LO:TX:t=P:problem=mixed beam	!	!	!	!	!	!	!	!	!	!	!	!	!	!	!	!	!	!	!	!	!	!	!	!	!
8GG#X/L	.	.	8G#X/L	.	8g#X\L	.	.	.	.	.	.	.	.	.	.	.	.	.	.	.	.	.	.	.	.
8E\	.	.	8g#X/	.	8ee 8bn 8e\	.	.	.	.	.	.	.	.	.	.	.	.	.	.	.	.	.	.	.	.
8E\J	.	.	8g#/J	.	8eeJ 8b 8e\	.	.	.	.	.	.	.	.	.	.	.	.	.	.	.	.	.	.	.	.
=130	=130	=130	=130	=130	=130	=130	=130	=130	=130	=130	=130	=130	=130	=130	=130	=130	=130	=130	=130	=130	=130	=130	=130	=130	=130
4E\	.	.	4g/	.	4ee 4b- 4e/	.	4.r	.	.	4.r	.	4.r	.	.	4.r	.	.	4.r	.	4.r	.	4.r	.	4.r	.
!LO:TX:b:t=P:problem=fermata na górze i na dole	!	!	!	!	!LO:TX:b:t=P:problem=fermata na górze i na dole, po pauzie	!	!	!	!	!	!	!	!	!	!	!	!	!	!	!	!	!	!	!	!
!	!	!	!	!	!LO:TX:b:t=Vertatur	!	!	!	!	!LO:TX:b:B:t=Agnus	!	!LO:TX:b:B:t=Agnuſ\nV&colon; C&colon;	!	!	!	!	!	!	!	!	!	!LO:TX:b:B:t=Agnus Dei Tacet\nFine	!	!LO:TX:b:B:t=Agnus Tacet\nFine	!
8r;	.	.	8r	.	8r;	.	.	.	.	.	.	.	.	.	.	.	.	.	.	.	.	.	.	.	.
=||	=||	=||	=||	=||	=||	=||	=||	=||	=||	=||	=||	=||	=||	=||	=||	=||	=||	=||	=||	=||	=||	=||	=||	=||	=||
*-	*-	*-	*-	*-	*-	*-	*-	*-	*-	*-	*-	*-	*-	*-	*-	*-	*-	*-	*-	*-	*-	*-	*-	*-	*-
!!!system-decoration: [g1][g2][g3][g4]
!!!RDF**kern: > = above
!!!RDF**kern: < = below
!!!RDF**dynam: p = "p:"
!!!RDF**dynam: f = "for:"
!!!ENC: Mateusz Solarz
!!!END: 2020-05-30
!!!ENC: Marta Lawrence
!!!END: 2020-07-01
!!!YEC: Copyright 2022 Narodowy Instytut Fryderyka Chopina (https://polishscores.org)
!!!YEM: License CC-BY-4.0 (https://creativecommons.org/licenses/by/4.0)
